!!!COM: Regis, Johannes
!!!CDT: ~1425-~1496
!!!COA: Josquin des Prez
!!!CDT:	~1450-1521/08/27
!!!OTL:  O admirabile commercium - Verbum caro factum est - Magnum nomen
!!!AGN:	Motet
!!!SCT:	NJE 26.8
!!!SCA:	New Josquin Edition 26.8
!!!voices: 5
**kern	**dynam	**text	**kern	**dynam	**text	**kern	**dynam	**text	**kern	**dynam	**text	**kern	**dynam	**text
*staff5	*staff5	*staff5	*staff4	*staff4	*staff4	*staff3	*staff3	*staff3	*staff2	*staff2	*staff2	*staff1	*staff1	*staff1
*Ivox	*	*	*Ivox	*	*	*Ivox	*	*	*Ivox	*	*	*Ivox	*	*
*I"Baryphonus	*	*	*I"Tenor	*	*	*I"Contratenor	*	*	*I"Vagans	*	*	*I"Superius	*	*
*I'By	*	*	*I'T	*	*	*I'Ct	*	*	*I'V	*	*	*I'S	*	*
*clefF4	*	*	*clefGv2	*	*	*clefG2	*	*	*clefG2	*	*	*clefG2	*	*
*k[]	*	*	*k[]	*	*	*k[]	*	*	*k[]	*	*	*k[]	*	*
*M9/2	*	*	*M9/2	*	*	*M9/2	*	*	*M9/2	*	*	*M9/2	*	*
*met(O.)	*	*	*met(O.)	*	*	*met(O.)	*	*	*met(O.)	*	*	*met(O.)	*	*
*MM228	*	*	*MM228	*	*	*MM228	*	*	*MM228	*	*	*MM228	*	*
=1-	=1-	=1-	=1-	=1-	=1-	=1-	=1-	=1-	=1-	=1-	=1-	=1-	=1-	=1-
[1.C	.	O_	[1.c	.	O_	[1.c	.	O_	1.r	.	.	[1.cc	.	O_
!	!LO:HP:X=-25:Z=10	!	!	!LO:HP:Z=10	!	!	!LO:HP:Z=5	!	!	!	!	!	!LO:HP:Z=5	!
1.C]	<	_	1.c]	<	_	1.c_	<	_	1.r	.	.	1.cc_	<	_
1.F	.	_	[1.A	(	_	1.c]	(	_	1.r	.	.	1.cc]	(	_
=2	=2	=2	=2	=2	=2	=2	=2	=2	=2	=2	=2	=2	=2	=2
!	!LO:HPZ:X=-20:Z=10	!	!	!LO:HPZ:X=-20:Z=10	!	!	!	!	!	!	!	!	!	!
[1.F	[	_	1.A]	[	_	[1.f	[	_	1.r	.	.	[1.a	[	_
1.F]	.	_	[1.c	.	_	1.f]	.	_	1.r	.	.	1.a]	.	_
!	!LO:HP:X=-20:Z=10	!	!	!LO:HP:X=-20:Z=10	!	!	!LO:HP:X=-20:Z=10	!	!	!	!	!	!LO:HP:X=-20:Z=10	!
!	!LO:HPZ:X=40:Z=10	!	!	!LO:HPZ:X=40:Z=10	!	!	!LO:HPZ:X=40:Z=10	!	!	!	!	!	!LO:HPZ:X=40:Z=10	!
[1.C	> ]	_	1.c]	> ]	_	1.e	> ]	_	1.r	.	.	[1.g	> ]	_
=3	=3	=3	=3	=3	=3	=3	=3	=3	=3	=3	=3	=3	=3	=3
1.C_	.	_	1.c	.	ad-	2r	.	.	1.r	.	.	1.g]	.	_
.	.	.	.	.	.	2r	.	.	.	.	.	.	.	.
!	!	!	!	!	!	!LO:TX:i:Z=6:t=animato	!	!	!	!	!	!	!	!
.	.	.	.	.	.	2.e/	.	ad-	.	.	.	.	.	.
!	!	!	!	!	!	!	!	!	!	!	!	!LO:TX:i:Z=6:t=animato	!	!
1.C_	.	_	1.e	.	.	.	.	.	1.r	.	.	1cc	.	ad-
.	.	.	.	.	.	4f/	.	.	.	.	.	.	.	.
.	.	.	.	.	.	2g/	.	.	.	.	.	.	.	.
.	.	.	.	.	.	2.a/	.	-mi-	.	.	.	2cc\	.	-mi-
1.C]	.	_	1.c	.	-mi-	.	.	.	1.r	.	.	2cc\	.	-ra-
.	.	.	.	.	.	4g/	.	.	.	.	.	.	.	.
.	.	.	.	.	.	2g/	.	-ra-	.	.	.	1ee	.	-bi-
.	.	.	.	.	.	[2cc\	.	.	.	.	.	.	.	.
=4	=4	=4	=4	=4	=4	=4	=4	=4	=4	=4	=4	=4	=4	=4
!	!	!	!LO:TX:i:Z=10:t=animato	!	!	!	!	!	!	!	!	!	!	!
1.G	.	_	1d	.	-ra-	4cc\]	.	.	1.r	.	.	2dd\	.	-le
.	.	.	.	.	.	4b\	.	.	.	.	.	.	.	.
.	.	.	.	.	.	2b\	.	-bi-	.	.	.	2.dd\	.	com-
.	.	.	2e\	.	-bi-	2g/	.	.	.	.	.	.	.	.
.	.	.	.	.	.	.	.	.	.	.	.	4cc\	.	.
1.r	.	.	2.f\	.	-le_	1a	.	-le	1.r	.	.	2dd\	.	-mer-
.	.	.	.	.	.	.	.	.	.	.	.	2cc\	.	.
.	.	.	4e\	.	_	.	.	.	.	.	.	.	.	.
.	.	.	2d\	.	_	2f/	.	com-	.	.	.	2.ff\	.	.
1.r	.	.	2c\	.	_	2.g/	.	-mer-	1.r	.	.	.	.	.
.	.	.	.	.	.	.	.	.	.	.	.	4ee\	.	.
.	.	.	1g	.	com-	.	.	.	.	.	.	2.ee\	.	.
.	.	.	.	.	.	4a/	.	.	.	.	.	.	.	.
.	.	.	.	.	.	4b\	.	.	.	.	.	.	.	.
.	.	.	.	.	.	4cc\	.	.	.	.	.	4dd\	.	.
=5	=5	=5	=5	=5	=5	=5	=5	=5	=5	=5	=5	=5	=5	=5
1.r	.	.	2f\	.	-mer-	2a/	.	.	1.r	.	.	2dd\	.	.
.	.	.	2g\	.	.	2g/	.	.	.	.	.	2.ee\	.	.
.	.	.	1c	.	.	2e/	.	.	.	.	.	.	.	.
.	.	.	.	.	.	.	.	.	.	.	.	4dd\	.	.
!	!	!	!	!	!	!	!LO:HP:Z=5	!	!	!	!	!	!LO:HP:Z=5	!
1.r	.	.	.	.	.	1g	<	-ci-	1.r	.	.	1cc	<	-ci-
.	.	.	1d	.	.	.	.	.	.	.	.	.	.	.
.	.	.	.	.	.	2f/	[	.	.	.	.	2b\	[	.
1.r	.	.	[1.c	.	.	1.g	.	-um!	1.r	.	.	1cc	.	-um!
.	.	.	.	.	.	.	.	.	.	.	.	2r	.	.
=6	=6	=6	=6	=6	=6	=6	=6	=6	=6	=6	=6	=6	=6	=6
!	!	!	!	!	!	!	!	!	!	!	!	!LO:TX:i:Z=12:t=marcato	!	!
1.r	.	.	1.c]	.	.	2r	.	.	1.r	.	.	1cc	.	Cre-
.	.	.	.	.	.	2r	.	.	.	.	.	.	.	.
!	!	!	!	!	!	!LO:TX:i:X=-20:Z=10:t=marcato	!	!	!	!	!	!	!	!
.	.	.	.	.	.	2g/	.	Cre-	.	.	.	1ee	.	.
1.r	.	.	1.G	.	-ci-	1.g	.	-a-	1.r	.	.	.	.	.
.	.	.	.	.	.	.	.	.	.	.	.	2.dd\	.	.
.	.	.	.	.	.	.	.	.	.	.	.	4cc\	.	.
!	!	!	!	!	!	!	!	!	!	!	!	!LO:TX:i:Z=12:t=legato	!	!
1.r	.	.	1.d	.	-um!_	1.f	.	-tor	1.r	.	.	2b\	.	-a-
.	.	.	.	.	.	.	.	.	.	.	.	2a/	.	.
.	.	.	.	.	.	.	.	.	.	.	.	2dd\	.	-tor
=7	=7	=7	=7	=7	=7	=7	=7	=7	=7	=7	=7	=7	=7	=7
!	!	!	!	!	!	!LO:TX:i:Z=8:X=-10:t=legato	!	!	!	!	!	!	!	!
1.r	.	.	1.G	.	_	1g	.	ge-	1.r	.	.	2b\	.	ge-
.	.	.	.	.	.	.	.	.	.	.	.	2.dd\	.	.
.	.	.	.	.	.	2g/	.	-ne-	.	.	.	.	.	.
.	.	.	.	.	.	.	.	.	.	.	.	4ee\	.	-ne-
1.r	.	.	2r	.	.	2a/	.	-ris_	1.r	.	.	2ff\	.	-ris_
!	!	!	!	!LO:HP:Z=12	!	!	!	!	!	!	!	!	!	!
!	!	!	!LO:TX:i:rj:X=8:Z=8:t=legato	!	!	!	!	!	!	!	!	!	!	!
.	.	.	2G/	<	Cre-	2b\	.	_	.	.	.	2gg\	.	_
.	.	.	2A/	(	.	2cc\	.	hu-	.	.	.	2ee\	.	hu-
1.r	.	.	2B\	(	-a-	2b\	.	-ma-	1.r	.	.	2dd\	.	-ma-
.	.	.	1c	[	-tor	2g/	.	.	.	.	.	2.gg\	.	.
.	.	.	.	.	.	[2cc\	.	.	.	.	.	.	.	.
.	.	.	.	.	.	.	.	.	.	.	.	4ff\	.	.
=8	=8	=8	=8	=8	=8	=8	=8	=8	=8	=8	=8	=8	=8	=8
1.r	.	.	1c	.	ge-	4cc\]	.	.	1.r	.	.	4ee\	.	.
.	.	.	.	.	.	4b\	.	.	.	.	.	4dd\	.	.
.	.	.	.	.	.	4a/	.	.	.	.	.	2ee\	.	.
.	.	.	.	.	.	4g/	.	.	.	.	.	.	.	.
.	.	.	2c\	.	-ne-	2a/	.	.	.	.	.	2cc\	.	.
1.r	.	.	2G/	.	-ris	2g/	.	.	1.r	.	.	2b\	.	.
.	.	.	1B	.	hu-	2f/	.	.	.	.	.	2.dd\	.	.
.	.	.	.	.	.	2g/	.	.	.	.	.	.	.	.
.	.	.	.	.	.	.	.	.	.	.	.	4cc\	.	.
!	!	!	!	!	!	!	!	!	!	!	!	!	!LO:HP:Z=5	!
1.r	.	.	2c\	.	-ma-	2e/	.	.	1.r	.	.	1cc	<	.
.	.	.	1G	.	-ni	1d	.	-ni...	.	.	.	.	.	.
.	.	.	.	.	.	.	.	.	.	.	.	2b\	[	.
=9	=9	=9	=9	=9	=9	=9	=9	=9	=9	=9	=9	=9	=9	=9
!	!	!	!	!	!	!	!LO:DY:X=-5:Z=0	!	!	!	!	!	!	!
1.C	.	-ad-	2r	.	.	[1.c	f	Ver-	1.r	.	.	1.cc	.	-ni,
.	.	.	2r	.	.	.	.	.	.	.	.	.	.	.
!	!	!	!	!LO:HP:Z=12	!	!	!	!	!	!	!	!	!	!
.	.	.	2G/	<	a-	.	.	.	.	.	.	.	.	.
[1.F	.	-mi-	1A	(	.	1.c_	.	.	1.r	.	.	1.r	.	.
.	.	.	2A/	(	-ni-	.	.	.	.	.	.	.	.	.
!	!	!	!	!	!	!	!LO:HP:Z=5	!	!	!	!	!	!LO:HP:Z=5	!
!	!	!	!	!	!	!	!LO:HPZ:X=+30	!	!	!	!	!LO:TX:i:Z=26:t=marcato	!	!
!	!LO:HP:X=-60:Z=10	!	!	!	!	!	!	!	!	!	!	!	!	!
1.F]	<	.	2F/	(	-ma-	1.c]	< [	.	1.r	.	.	1.cc	< [	a-
.	.	.	2.A/	(	-tum_	.	.	.	.	.	.	.	.	.
!	!	!	!	!LP:HPZ:X=40	!	!	!	!	!	!	!	!	!	!
.	.	.	4B\	[	_	.	.	.	.	.	.	.	.	.
=10	=10	=10	=10	=10	=10	=10	=10	=10	=10	=10	=10	=10	=10	=10
!XLO:TX:sz=small:X=-20:Z=28:t=[Chigi&colon; Perfect breve]	!	!	!	!	!	!	!	!	!	!LO:DY:X=5:Z=0	!	!	!	!
[1.C	(	-ra-	[1.c	.	cor-	[1.e	.	-bum_	[1.g	f	Ver-	1cc^	.	-ni-
.	.	.	.	.	.	.	.	.	.	.	.	1ee^	.	-ma-
!	!LO:HPZ:X=-60	!	!	!	!	!	!	!	!	!	!	!	!	!
1.C]	[	.	1.c]	.	.	1.e_	.	_	1.g_	.	.	.	.	.
.	.	.	.	.	.	.	.	.	.	.	.	2ee^\	.	-tum
.	.	.	.	.	.	.	.	.	.	.	.	2ee\	.	cor-
1.C	.	-bi-	1.c	.	-pus	1.e]	.	_	1.g]	.	.	2ee\	.	-pus
.	.	.	.	.	.	.	.	.	.	.	.	2.ee\	.	su-
.	.	.	.	.	.	.	.	.	.	.	.	4dd\	.	.
=11	=11	=11	=11	=11	=11	=11	=11	=11	=11	=11	=11	=11	=11	=11
!XLO:TX:sz=s:X=-20:Z=28:t=[Chigi&colon; Perfect breve]	!	!	!	!	!	!	!	!	!	!	!	!	!	!
[1.G	.	-le_	1.d	.	su-	[1.g	.	ca-	[1.b	.	-bum_	1dd	.	-mens,
.	.	.	.	.	.	.	.	.	.	.	.	2r	.	.
1.G]	.	_	1B	.	-mens_	1.g_	.	.	1.b_	.	_	2.gg\	.	de_
.	.	.	.	.	.	.	.	.	.	.	.	4ff\	.	_
.	.	.	2c\	.	_	.	.	.	.	.	.	2ee\	.	_
1.G	.	com-	1.d	.	de	1.g]	.	.	1.b]	.	_	2.dd^\	.	Vir-
.	.	.	.	.	.	.	.	.	.	.	.	2.b^\	.	-gi-
=12	=12	=12	=12	=12	=12	=12	=12	=12	=12	=12	=12	=12	=12	=12
!XLO:TX:sz=s:X=-20:Z=28:t=[Chigi&colon; Perfect breve]	!	!	!	!	!	!	!	!	!	!	!	!	!	!
[1.D	.	-mer-	[1.d	.	Vir-	[1.f	.	-ro_	[1.dd	.	ca-	1a	.	-ne
.	.	.	.	.	.	.	.	.	.	.	.	2a/	.	di-
1.D]	.	.	1.d]	.	.	1.f_	.	_	1.dd_	.	.	2a/	.	-gna-
.	.	.	.	.	.	.	.	.	.	.	.	1a	.	-tus-
1.D	.	-ci-	1.d	.	-gi-	1.f]	.	_	1.dd]	.	.	2a/	.	-est
.	.	.	.	.	.	.	.	.	.	.	.	1a	.	na-
=13	=13	=13	=13	=13	=13	=13	=13	=13	=13	=13	=13	=13	=13	=13
[1.A	.	-um!_	1.e	.	-ne_	1.e	.	fa-	[1.cc	.	-ro_	1.a	.	-sci,
1.A_	.	_	1.c	.	_	[1.f	.	-ctum_	1.cc_	.	_	1.r	.	.
1.A]	.	_	2r	.	.	1.f]	.	_	1.cc]	.	_	1.a	.	na-
.	.	.	2r	.	.	.	.	.	.	.	.	.	.	.
.	.	.	2c^\	.	di-	.	.	.	.	.	.	.	.	.
=14	=14	=14	=14	=14	=14	=14	=14	=14	=14	=14	=14	=14	=14	=14
[1.G	.	Cre-	[1.d^	.	-gna-	[1.g	.	est,_	[1.b	.	fa-	[1.dd	.	.
1.G]	.	.	1.d]	.	.	1.g_	.	_	1.b]	.	.	1dd]	.	.
.	.	.	.	.	.	.	.	.	.	.	.	2b\	.	.
1.C	.	-a-	1.e	.	-tus	1.g]	.	_	[1.ee	.	.	2cc\	.	.
.	.	.	.	.	.	.	.	.	.	.	.	1g	.	.
=15	=15	=15	=15	=15	=15	=15	=15	=15	=15	=15	=15	=15	=15	=15
!XLO:TX:sz=s:X=-20:Z=20:t=[Chigi&colon; Imperfect long]	!	!	!	!	!	!	!	!	!	!	!	!	!	!
[1.C	.	-tor_	1.c	.	est	[1.g	.	ver-	1.ee_	.	.	2.cc\	.	-sci,_
.	.	.	.	.	.	.	.	.	.	.	.	4dd\	.	_
.	.	.	.	.	.	.	.	.	.	.	.	2.ee\	.	et_
1.C_	.	_	[1.c	.	su-	1.g]	.	.	1.ee_	.	.	.	.	.
.	.	.	.	.	.	.	.	.	.	.	.	4ff\	.	_
.	.	.	.	.	.	.	.	.	.	.	.	1gg	.	pro-
1.C]	.	_	1.c]	.	.	1.g	.	-bum	1.ee]	.	.	2gg\	.	-ce-
.	.	.	.	.	.	.	.	.	.	.	.	2ff\	.	.
.	.	.	.	.	.	.	.	.	.	.	.	2ee\	.	.
=16	=16	=16	=16	=16	=16	=16	=16	=16	=16	=16	=16	=16	=16	=16
1.G	.	ge-	1.d	.	-a	1g	.	ca-	1.dd	.	-ctum_	4dd\	.	.
.	.	.	.	.	.	.	.	.	.	.	.	4cc\	.	.
.	.	.	.	.	.	.	.	.	.	.	.	2b\	.	.
.	.	.	.	.	.	2g/	.	-ro	.	.	.	2.b\	.	.
[1.A	.	-ne-	1.r	.	.	2e/	.	fa-	[1.cc	.	_	.	.	.
.	.	.	.	.	.	.	.	.	.	.	.	4a/	.	.
.	.	.	.	.	.	2.a/	.	.	.	.	.	1.a	.	-dens
.	.	.	.	.	.	4g/	.	.	.	.	.	.	.	.
!	!	!	!	!	!	!	!LO:HP:Z=5	!	!	!	!	!	!	!
1.A]	.	.	1.r	.	.	2f/	<	.	1.cc]	.	_	.	.	.
.	.	.	.	.	.	1e	(	-ctum	.	.	.	2r	.	.
!	!	!	!	!	!	!	!	!	!	!	!	!	!LO:HP:Z=15	!
!	!	!	!	!	!	!	!	!	!	!	!	!LO:TX:rj:i:Z=12:t=legato	!	!
.	.	.	.	.	.	.	.	.	.	.	.	2ee\	<	ho-
=17	=17	=17	=17	=17	=17	=17	=17	=17	=17	=17	=17	=17	=17	=17
!LO:TX:i:Z=20:t=legato	!	!	!LO:TX:i:X=-20:Z=24:t=legato	!	!	!	!	!	!	!LO:HP:Z=15	!	!	!	!
!	!LO:HP:Z=4	!	!	!LO:HP:X=35:Z=15	!	!	!	!	!	!	!	!	!	!
1.D	<	-ris	1.a	<	et_	[1.d	(	est_	[1.dd	<	est_	1.ff	(	.
1D	(	hu-	1f	(	_	1.d]	[	_	1.dd_	(	_	1dd	(	.
1G	(	-ma-	1d	(	pro-	.	.	.	.	.	.	2b\	(	.
.	.	.	.	.	.	1.r	.	.	1.dd]	[	_	2cc\	(	.
!	!	!	!	!LO:HPZ:X=30	!	!	!	!	!	!	!	!	!	!
1F	(	.	1d	[	-ce-	.	.	.	.	.	.	2.ff\	(	.
.	.	.	.	.	.	.	.	.	.	.	.	4ee\	[	.
=18	=18	=18	=18	=18	=18	=18	=18	=18	=18	=18	=18	=18	=18	=18
!	!LO:HPZ:X=-60	!	!	!	!	!LO:TX:i:Z=6:t=legato	!	!	!	!	!	!	!	!
[1.C	[	-ni,_	1c	.	-dens	1.g	.	et	1.r	.	.	[1.ee	.	-mo_
.	.	.	2c\	.	ho-	.	.	.	.	.	.	.	.	.
1.C	.	_	2G/	.	.	1g	.	ha-	1.r	.	.	1ee]	.	_
.	.	.	2.c\	.	.	.	.	.	.	.	.	.	.	.
.	.	.	.	.	.	2a/	.	-bi-	.	.	.	2r	.	.
.	.	.	4B\	.	.	.	.	.	.	.	.	.	.	.
1.r	.	.	2A/	.	.	2cc\	.	-ta-	1.r	.	.	1.ee	.	si-
.	.	.	2G/	.	.	2b\	.	.	.	.	.	.	.	.
.	.	.	2A/	.	.	2a/	.	.	.	.	.	.	.	.
=19	=19	=19	=19	=19	=19	=19	=19	=19	=19	=19	=19	=19	=19	=19
1C	.	a-	1.c	.	-mo	2g/	.	-vit_	1.r	.	.	2.ee\	.	-ne_
.	.	.	.	.	.	1a	.	_	.	.	.	.	.	.
.	.	.	.	.	.	.	.	.	.	.	.	4dd\	.	_
2F\	.	-ni-	.	.	.	.	.	.	.	.	.	2cc\	.	_
2G\	.	-ma-	2r	.	.	2g/	.	in_	1.r	.	.	2b\	.	_
1D	.	-tum	1d	.	si-	1f	.	_	.	.	.	2a/	.	_
.	.	.	.	.	.	.	.	.	.	.	.	1dd	.	_
1.A	.	cor-	1e	.	.	1.e	.	no-	1.r	.	.	.	.	.
.	.	.	.	.	.	.	.	.	.	.	.	1cc	.	_
.	.	.	2c\	.	-ne	.	.	.	.	.	.	.	.	.
=20	=20	=20	=20	=20	=20	=20	=20	=20	=20	=20	=20	=20	=20	=20
[1.G	.	-pus_	2d\	.	se-	1.g	.	.	1.dd	.	et	[1.b	.	se-
.	.	.	2B\	.	.	.	.	.	.	.	.	.	.	.
.	.	.	2d\	.	-mi-	.	.	.	.	.	.	.	.	.
1.G]	.	_	2d\	.	-ne_	1d	.	-bis,	1dd	.	ha-	1b]	.	.
.	.	.	2.g\	.	_	.	.	.	.	.	.	.	.	.
.	.	.	.	.	.	2.g/	.	in_	2ee\	.	-bi-	2b\	.	-mi-
.	.	.	4f\	.	_	.	.	.	.	.	.	.	.	.
1.r	.	.	2e\	.	_	.	.	.	2.gg\	.	-ta-	2cc\	.	.
.	.	.	.	.	.	4a/	.	_	.	.	.	.	.	.
.	.	.	2d\	.	si-	2b\	.	_	.	.	.	2dd\	.	.
.	.	.	.	.	.	.	.	.	4ff\	.	.	.	.	.
.	.	.	[2c\	.	-ne_	2cc\	.	_	2ee\	.	.	2a/	.	.
=21	=21	=21	=21	=21	=21	=21	=21	=21	=21	=21	=21	=21	=21	=21
!	!	!	!	!LO:HP:Z=5	!	!	!LO:HP:Z=5	!	!	!LO:HP:Z=15	!	!	!LO:HP:Z=20	!
1.r	.	.	4c\]	>	_	2g/	>	no-	2dd\	>	-vit	2dd\	>	.
.	.	.	4B\	)	_	.	.	.	.	.	.	.	.	.
.	.	.	2c\	)	_	2e/	)	.	2.ee\	)	in_	2cc\	)	.
.	.	.	2d\	)	_	2f/	)	.	.	.	.	2a/	)	.
.	.	.	.	.	.	.	.	.	4dd\	)	_	.	.	.
1.r	.	.	2B\	)	-se-	2g/	)	.	2dd\	)	no-	2b\	)	.
.	.	.	2c\	)	.	2.e/	)	.	2.cc\	)	.	2.a/	)	.
.	.	.	2G/	)	.	.	.	.	.	.	.	.	.	.
.	.	.	.	.	.	4d/	)	.	4b\	)	.	4g/	)	.
1.r	.	.	2B\	)	.	1d	)	.	2g/	)	.	1g	)	.
.	.	.	1A	]	.	.	.	.	2.a/	)	.	.	.	.
.	.	.	.	.	.	2c/	]	.	.	.	.	2f#i/	]	.
.	.	.	.	.	.	.	.	.	4g/	]	.	.	.	.
=22	=22	=22	=22	=22	=22	=22	=22	=22	=22	=22	=22	=22	=22	=22
!	!LO:DY:X=-10:Z=12	!	!	!	!	!	!	!	!	!	!	!	!	!
[1.G	p	su-	1.G	.	.	1.d	.	.	1.b	.	-bis.	1.g	.	-ne,
1.G_	.	.	1d	.	.	1.g	.	.	1.r	.	.	1.r	.	.
.	.	.	2d\	.	.	.	.	.	.	.	.	.	.	.
!	!	!	!	!	!	!	!	!	!	!	!	!	!LO:DY:X=-15:Z=2	!
!	!	!	!	!	!	!	!	!	!	!	!	!LO:TX:i:X=10:Z=10:t=bright and dance-like	!	!
1.G_	.	.	1B	.	.	1.g	.	-bis.	1.r	.	.	1dd	p	lar-
.	.	.	2c\	.	-mi-	.	.	.	.	.	.	2cc\	.	.
=23	=23	=23	=23	=23	=23	=23	=23	=23	=23	=23	=23	=23	=23	=23
!	!	!	!	!	!	!LO:TX:i:Z=6:t=pompous	!	!	!	!LO:DY:X=-20:Z=2	!	!	!	!
!	!	!	!	!	!	!	!	!	!LO:TX:i:X=10:Z=6:t=bright and dance-like	!	!	!	!	!
1.G_	.	.	1.d	.	-ne.	[1.g	.	Et_	1dd	p	Ma-	1b	.	.
.	.	.	.	.	.	.	.	.	2cc\	.	-gnum	2cc\	.	-gi-
1.G]	.	.	1.r	.	.	1.g]	.	_	1b	.	no-	2dd\	.	-tus_
.	.	.	.	.	.	.	.	.	.	.	.	2.ee\	.	_
.	.	.	.	.	.	.	.	.	2cc\	.	-men	.	.	.
.	.	.	.	.	.	.	.	.	.	.	.	4dd\	.	_
!	!	!	!	!LO:DY:X=-40:Z=0	!	!	!	!	!	!	!	!	!	!
!	!	!	!LO:TX:i:Z=8:t=pompous	!	!	!	!	!	!	!	!	!	!	!
1.G	.	-mens	1B	mp	Ma-	1d	.	pro-	1dd	.	Do-	1dd	.	est
.	.	.	2c\	.	-gnum	2e/	.	.	2cc\	.	-mi-	2r	.	.
=24	=24	=24	=24	=24	=24	=24	=24	=24	=24	=24	=24	=24	=24	=24
1G^\	.	de	1d^	.	no-	1g	.	-ce-	2b\	.	-ni	2.dd\	.	no-
!	!	!	!	!	!	!	!	!	!	!LO:HP:Z=5	!	!	!	!
.	.	.	.	.	.	.	.	.	2.dd\	<	E-	.	.	.
!	!	!	!	!	!	!	!	!	!	!	!	!	!LO:HP:Z=20	!
.	.	.	.	.	.	.	.	.	.	.	.	4ee\	<	.
2D^\	.	Vir-	2d^\	.	-men	2f/	.	-dens	.	.	.	2ff\	(	.
.	.	.	.	.	.	.	.	.	4cc\	(	.	.	.	.
2G^\	.	-gi-	2G^/	.	Do-	2g/	.	ho-	2b\	(	-ma-	2.gg\	(	.
1D^\	.	-ne	1d^	.	-mi-	2a/	.	.	1a	(	-nu-	.	.	.
.	.	.	.	.	.	.	.	.	.	.	.	4ff\	(	.
.	.	.	.	.	.	2d/	.	-mo,	.	.	.	2ff\	(	.
1.r	.	.	2e\	.	-ni	2r	.	.	1.g	[	-el	2gg\	(	.
.	.	.	1c	.	E-	2g/	.	et	.	.	.	2.ee\	(	.
.	.	.	.	.	.	2a/	.	pro-	.	.	.	.	.	.
.	.	.	.	.	.	.	.	.	.	.	.	4dd\	[	.
=25	=25	=25	=25	=25	=25	=25	=25	=25	=25	=25	=25	=25	=25	=25
1.r	.	.	2d\	.	-ma-	2f^/	.	-ce-	1.r	.	.	1dd	.	.
.	.	.	1A	.	.	1e^	.	-dens	.	.	.	.	.	.
.	.	.	.	.	.	.	.	.	.	.	.	2cc#i\	.	.
!	!LO:DY:X=-35:Z=-5	!	!	!	!	!	!	!	!	!LO:DY:X=-40:Z=5	!	!	!	!
[1.G	mf	et_	1B	.	.	1d	.	ho-	1dd^	mf	quod	2dd\	.	-bis
.	.	.	.	.	.	.	.	.	.	.	.	2r	.	.
.	.	.	2A/	.	-nu-	2d/	.	-mo	2cc\	.	an-	2r	.	.
!	!	!	!	!	!	!	!	!	!	!	!	!	!LO:DY:X=-35:Z=2	!
1G]	.	_	2B\	.	-el_	2.d/	.	si-	1b	.	-nun-	1dd^	mf	su-
.	.	.	2G/	.	_	.	.	.	.	.	.	.	.	.
.	.	.	.	.	.	4e/	.	.	.	.	.	.	.	.
2A\	.	pro-	2r	.	.	2f/	.	-ne	2cc\	.	-ci-	2cci\	.	-am
=26	=26	=26	=26	=26	=26	=26	=26	=26	=26	=26	=26	=26	=26	=26
!	!	!	!	!LO:DY:X=-15:Z=6	!	!	!	!	!	!	!	!	!	!
2G\	.	-ce-	1.d	mf	quod	2g/	.	se-	1dd	.	-a-	2b\	.	de-
2D\	.	-dens	.	.	.	2a/	.	.	.	.	.	2.a/	.	.
2F\	.	ho-	.	.	.	2f/	.	-mi-	2cc\	.	-tum	.	.	.
.	.	.	.	.	.	.	.	.	.	.	.	4g/	.	-i-
2G\	.	-mo	1d	.	an-	2d/	.	-ne.	2b\	.	est	2g/	.	-ta-
2D\	.	si-	.	.	.	1r	.	.	2.a/	.	per_	2a/	.	.
2G\	.	-ne	2B\	.	.	.	.	.	.	.	.	2b\	.	.
.	.	.	.	.	.	.	.	.	4g/	.	_	.	.	.
2B\	.	se-	2.d\	.	-nun-	1.r	.	.	1g	.	Ga-	2g/	.	.
1A	.	-mi-	.	.	.	.	.	.	.	.	.	2.a/	.	.
.	.	.	4c\	.	.	.	.	.	.	.	.	.	.	.
.	.	.	2c\	.	-ci-	.	.	.	2f#i/	.	.	.	.	.
.	.	.	.	.	.	.	.	.	.	.	.	4g/	.	.
=27	=27	=27	=27	=27	=27	=27	=27	=27	=27	=27	=27	=27	=27	=27
!	!	!	!	!	!	!	!LO:DY:X=-5:Z=0	!	!	!	!	!	!	!
1.G	.	-ne,_	1d	.	-a-	1g	mf	Ma-	1.g	.	-bri-	1.b	.	.
.	.	.	2d\	.	-tum	2f/	.	-gnum	.	.	.	.	.	.
1.A	.	_	2c\	.	est,_	1e	.	no-	1.r	.	.	1.cc	.	.
.	.	.	2A/	.	_	.	.	.	.	.	.	.	.	.
.	.	.	2c\	.	per	2f/	.	-men	.	.	.	.	.	.
!LO:TX:i:X=20:Z=8:t=pompous	!	!	!	!	!	!	!	!	!	!	!	!	!	!
!	!LO:DY:X=-20:Z=0	!	!	!	!	!	!	!	!	!	!	!	!	!
1G	f	lar-	2d\	.	Ga-	1g	.	Do-	1.r	.	.	1.b	.	-tem,
.	.	.	2.d\	.	-bri-	.	.	.	.	.	.	.	.	.
2D\	.	.	.	.	.	2f/	.	-mi-	.	.	.	.	.	.
.	.	.	4c\	.	.	.	.	.	.	.	.	.	.	.
=28	=28	=28	=28	=28	=28	=28	=28	=28	=28	=28	=28	=28	=28	=28
2G\	.	-gi-	2B\	.	-el,	2e/	.	-ni	1.r	.	.	1.r	.	.
1F	.	-tus	1A	.	Ga-	1d	.	E-	.	.	.	.	.	.
2E\	.	est_	2.G/	.	-bri-	2.c/	.	-ma-	1.r	.	.	2r	.	.
1D	.	_	.	.	.	.	.	.	.	.	.	2r	.	.
.	.	.	4F/	.	.	4B/	.	.	.	.	.	.	.	.
!	!	!	!	!	!	!	!	!	!	!	!	!	!LO:DY:X=-15:Z=-5	!
!	!	!	!	!	!	!	!	!	!	!	!	!LO:TX:i:X=-40:Z=20:t=exultant and legato	!	!
.	.	.	2F/	.	.	2B/	.	-nu-	.	.	.	2dd\	f	su-
[1.C	.	no-	1G	.	-el_	1.c	.	-el	1.r	.	.	2ee\	.	.
.	.	.	.	.	.	.	.	.	.	.	.	2cc\	.	.
.	.	.	[2c\	.	_	.	.	.	.	.	.	[2ee\	.	-am_
=29	=29	=29	=29	=29	=29	=29	=29	=29	=29	=29	=29	=29	=29	=29
2C/]	.	.	2c\]	.	_	1.r	.	.	1.r	.	.	2ee\]	.	_
1G	.	.	1d	.	su-	.	.	.	.	.	.	2.dd\	.	de-
.	.	.	.	.	.	.	.	.	.	.	.	4cc\	.	.
!	!	!	!	!	!	!	!LO:DY:X=-20:Z=0	!	!	!	!	!	!	!
2G\	.	-bis	2d\	.	-am_	1g	f	quod	1.r	.	.	2b\	.	-i-
4E\	.	su_	2c\	.	_	.	.	.	.	.	.	2ee\	.	-ta-
4C/	.	_	.	.	.	.	.	.	.	.	.	.	.	.
2D\	.	_	4A/	.	_	2f/	.	an-	.	.	.	2dd\	.	.
.	.	.	4B\	.	_	.	.	.	.	.	.	.	.	.
1C	.	am	2c\	.	_	1e	.	-nun-	1.r	.	.	2ee\	.	.
.	.	.	2e\	.	_	.	.	.	.	.	.	2.gg\	.	.
2D\	.	de-	2d\	.	_	2f/	.	-ci-	.	.	.	.	.	.
.	.	.	.	.	.	.	.	.	.	.	.	4ff\	.	.
=30	=30	=30	=30	=30	=30	=30	=30	=30	=30	=30	=30	=30	=30	=30
4E\	.	.	2r	.	.	1g	.	-a-	1.r	.	.	2ee\	.	.
4F\	.	.	.	.	.	.	.	.	.	.	.	.	.	.
!	!	!	!	!LO:HP:Z=15	!	!	!	!	!	!	!	!	!	!
2G\	.	.	2d\	<	de-	.	.	.	.	.	.	4b\	.	.
.	.	.	.	.	.	.	.	.	.	.	.	4cc\	.	.
2D\	.	-i-	2B\	(	-i-	2f/	.	-tum	.	.	.	2dd\	.	.
2C/	.	-ta-	2c\	(	-ta-	1g	.	est	1.r	.	.	2ee\	.	.
2BB/	.	.	2d\	(	.	.	.	.	.	.	.	2.dd\	.	.
1C	.	.	2.e\	(	.	2e/	.	per	.	.	.	.	.	.
.	.	.	.	.	.	.	.	.	.	.	.	4cc\	.	.
.	.	.	.	.	.	2c/	.	Ga-	1.r	.	.	1cc	.	.
.	.	.	4f\	(	.	.	.	.	.	.	.	.	.	.
1G	.	.	1g	[	.	1d	.	-bri-	.	.	.	.	.	.
.	.	.	.	.	.	.	.	.	.	.	.	2b\	.	.
=31	=31	=31	=31	=31	=31	=31	=31	=31	=31	=31	=31	=31	=31	=31
[1.Cl	.	-tem.	[1.gl	.	-tem.	[1.cl	.	-el.	[1.gl	.	-el.	[1.ccl	.	-tem.
1.C_	.	.	1.g_	.	.	1.c_	.	.	1.g_	.	.	1.cc_	.	.
1.C]	.	.	1.g]	.	.	1.c]	.	.	1.g]	.	.	1.cc]	.	.
!!LO:LB:i:g=z
=32||	=32||	=32||	=32||	=32||	=32||	=32||	=32||	=32||	=32||	=32||	=32||	=32||	=32||	=32||
*>B	*>B	*>B	*>B	*>B	*>B	*>B	*>B	*>B	*>B	*>B	*>B	*>B	*>B	*>B
*M3/1	*M3/1	*	*M3/1	*M3/1	*	*M3/1	*M3/1	*	*M3/1	*M3/1	*	*M3/1	*M3/1	*
*met(O)	*met(O)	*met()	*met(O)	*met(O)	*met()	*met(O)	*met(O)	*met()	*met(O)	*met(O)	*met()	*met(O)	*met(O)	*met()
*MM272	*	*	*MM272	*	*	*MM272	*	*	*MM272	*	*	*MM272	*	*
!	!	!	!	!LO:DY:X=-10:Z=2	!	!	!LO:DY:X=-10:Z=2	!	!	!	!	!	!LO:DY:X=-15:Z=2	!
!	!	!	!	!	!	!	!	!	!	!	!	!LO:TX:i:X=10:Z=8:t=very legato and peaceful	!	!
!!section: Iocundare die theotice - Verbum caro factus est - Hodie apparuit
!!!OMD: Secunda pars
0.r	.	.	1c	p	Io-	1c	p	Io-	0.r	.	.	1cc	p	Io-
.	.	.	2c\	.	-cun-	1e	.	-cun-	.	.	.	1cc	.	-cun-
.	.	.	2B\	.	-da-	.	.	.	.	.	.	.	.	.
.	.	.	1A	.	-re	1f	.	-da-	.	.	.	1cc	.	-da-
=33	=33	=33	=33	=33	=33	=33	=33	=33	=33	=33	=33	=33	=33	=33
0.r	.	.	0G	.	di-	1g	.	.	0.r	.	.	1b	.	-re
.	.	.	.	.	.	1.b	.	.	.	.	.	0dd	.	di-
.	.	.	1G	.	-e	.	.	.	.	.	.	.	.	.
.	.	.	.	.	.	2a/	.	-re	.	.	.	.	.	.
=34	=34	=34	=34	=34	=34	=34	=34	=34	=34	=34	=34	=34	=34	=34
0.r	.	.	1A	.	the-	0a	.	di-	0.r	.	.	1cc	.	-e
.	.	.	0d	.	-o-	.	.	.	.	.	.	1.ff	.	the-
.	.	.	.	.	.	2.a/	.	-e_	.	.	.	.	.	.
.	.	.	.	.	.	.	.	.	.	.	.	2ee\	.	.
.	.	.	.	.	.	4b\	.	_	.	.	.	.	.	.
=35	=35	=35	=35	=35	=35	=35	=35	=35	=35	=35	=35	=35	=35	=35
0.r	.	.	1c	.	-to-	2cc\	.	the-	0.r	.	.	1ee	.	-o-
.	.	.	.	.	.	2.cc\	.	-o-	.	.	.	.	.	.
.	.	.	1G	.	-ce,	.	.	.	.	.	.	1dd	.	.
.	.	.	.	.	.	4b\	.	.	.	.	.	.	.	.
.	.	.	.	.	.	2b\	.	-to-	.	.	.	.	.	.
.	.	.	2r	.	.	2a/	.	.	.	.	.	[1ee	.	.
.	.	.	[2c\	.	tin-	2g/	.	.	.	.	.	.	.	.
=36	=36	=36	=36	=36	=36	=36	=36	=36	=36	=36	=36	=36	=36	=36
!	!	!	!	!	!	!LO:TX:b:Z=10:sz=large:t=   ,	!	!	!	!	!	!	!	!
0.r	.	.	2c\]	.	.	1a,	.	-ce,	0.r	.	.	2ee\]	.	.
.	.	.	1d	.	-nu-	.	.	.	.	.	.	2.ff\	.	.
.	.	.	.	.	.	1d	.	tin-	.	.	.	.	.	.
.	.	.	.	.	.	.	.	.	.	.	.	4ee\	.	.
!	!	!	!	!	!	!	!	!	!	!	!	!	!LO:HP:Z=25	!
.	.	.	2B\	.	.	.	.	.	.	.	.	1dd	<	.
.	.	.	1A	.	-la	1e	.	-nu-	.	.	.	.	.	.
.	.	.	.	.	.	.	.	.	.	.	.	2cc#i\	[	-to-
=37	=37	=37	=37	=37	=37	=37	=37	=37	=37	=37	=37	=37	=37	=37
!	!	!	!	!	!	!	!	!	!	!	!	!LO:TX:i:Z=6:t=     ,	!	!
0.r	.	.	2.B\	.	fe-	1d	.	-la	0.r	.	.	0dd	.	-ce,
.	.	.	4G/	.	.	.	.	.	.	.	.	.	.	.
.	.	.	0G	.	-sto	0g	.	fe-	.	.	.	.	.	.
.	.	.	.	.	.	.	.	.	.	.	.	1b	.	tin-
=38	=38	=38	=38	=38	=38	=38	=38	=38	=38	=38	=38	=38	=38	=38
0.r	.	.	1G	.	o-	1b	.	-sto_	0.r	.	.	1dd	.	.
.	.	.	1d	.	.	1a	.	_	.	.	.	1ff	.	.
.	.	.	2e\	.	-mni-	1g	.	o-	.	.	.	2ee\	.	-nu-
.	.	.	[2c\	.	-que_	.	.	.	.	.	.	[2ee\	.	-la_
=39	=39	=39	=39	=39	=39	=39	=39	=39	=39	=39	=39	=39	=39	=39
0.r	.	.	4c\]	.	_	1cc	.	-mni-	0.r	.	.	4ee\]	.	_
.	.	.	4B\	.	_	.	.	.	.	.	.	4dd\	.	_
.	.	.	2A/	.	_	.	.	.	.	.	.	2cc\	.	_
.	.	.	2G/	.	in-	2b\	.	.	.	.	.	2dd\	.	fe-
.	.	.	1c	.	-e-	2g/	.	.	.	.	.	2ee\	.	.
.	.	.	.	.	.	2.a/	.	.	.	.	.	2cc\	.	.
.	.	.	2d\	.	-sto	.	.	.	.	.	.	[2b\	.	.
.	.	.	.	.	.	4g/	.	.	.	.	.	.	.	.
=40	=40	=40	=40	=40	=40	=40	=40	=40	=40	=40	=40	=40	=40	=40
0.r	.	.	2.e\	.	gau-	2.g/	.	-que_	0.r	.	.	4b\]	.	.
.	.	.	.	.	.	.	.	.	.	.	.	4a/	.	.
.	.	.	.	.	.	.	.	.	.	.	.	1g	.	.
.	.	.	4f\	.	.	4f/	.	_	.	.	.	.	.	.
.	.	.	2g\	.	.	2e/	.	in-	.	.	.	.	.	.
!	!	!	!	!	!	!	!LO:HP:Z=5	!	!	!	!	!	!LO:HP:Z=5	!
.	.	.	2e\	.	.	1g	<	-e-	.	.	.	1cc	<	.
.	.	.	1d	.	.	.	.	.	.	.	.	.	.	.
.	.	.	.	.	.	2f/	(	.	.	.	.	2b\	(	.
=41	=41	=41	=41	=41	=41	=41	=41	=41	=41	=41	=41	=41	=41	=41
!LO:TX:i:X=-20:Z=16:t=declamatory	!	!	!	!	!	!	!	!	!	!	!	!	!	!
!	!LO:DY:X=-10:Z=-5	!	!	!	!	!	!	!	!	!	!	!	!	!
0C	mf	Ver-	1c	.	.	1g	[	.	0.r	.	.	1cc	[	-sto
.	.	.	2G/	.	.	2e/	.	.	.	.	.	1r	.	.
!	!	!	!	!LO:HP:Z=5	!	!	!	!	!	!	!	!	!	!
.	.	.	1c	<	.	2f/	.	.	.	.	.	.	.	.
!	!	!	!	!	!	!	!	!	!	!	!	!LO:TX:i:Z=10:t=stronger	!	!
1r	.	.	.	.	.	1g	.	-sto	.	.	.	1ee	.	o-
!	!	!	!	!LO:HPZ:X=20	!	!	!	!	!	!	!	!	!	!
.	.	.	2B\	[	-di-	.	.	.	.	.	.	.	.	.
=42	=42	=42	=42	=42	=42	=42	=42	=42	=42	=42	=42	=42	=42	=42
1C	.	-bum	0G	.	-o._	0g	.	gau-	0.r	.	.	0ee	.	-mni
2E\	.	ca-	.	.	.	.	.	.	.	.	.	.	.	.
2G\	.	.	.	.	.	.	.	.	.	.	.	.	.	.
2F\	.	-ro	1D	.	_	[1a	.	.	.	.	.	2.dd\	.	que_
2E\	.	fa-	.	.	.	.	.	.	.	.	.	.	.	.
.	.	.	.	.	.	.	.	.	.	.	.	4cc\	.	_
=43	=43	=43	=43	=43	=43	=43	=43	=43	=43	=43	=43	=43	=43	=43
1F	.	-ctum_	1r	.	.	1a]	.	.	0.r	.	.	2cc\	.	in-
.	.	.	.	.	.	.	.	.	.	.	.	2a/	.	.
1G	.	_	1r	.	.	0g	.	.	.	.	.	1.b	.	-e-
!	!	!	!LO:TX:i:X=-80:Z=16:t=declamatory	!	!	!	!	!	!	!	!	!	!	!
!	!	!	!	!LO:DY:X=-10:Z=-4	!	!	!	!	!	!	!	!	!	!
2G\	.	est	1G	mf	Ver-	.	.	.	.	.	.	.	.	.
2r	.	.	.	.	.	.	.	.	.	.	.	[2dd\	.	.
=44	=44	=44	=44	=44	=44	=44	=44	=44	=44	=44	=44	=44	=44	=44
!	!LO:DY:X=-20:Z=10	!	!	!	!	!	!	!	!	!	!	!	!	!
1G	mp	fa-	2B\	.	-bum	1g	.	-di-	0.r	.	.	4dd\]	.	.
.	.	.	.	.	.	.	.	.	.	.	.	4cc\	.	.
.	.	.	2d\	.	ca-	.	.	.	.	.	.	2b\	.	.
2A\	.	-ctum_	2c\	.	-ro	0e	.	-o.	.	.	.	2a/	.	-sto
4G\	.	_	2B\	.	fa-	.	.	.	.	.	.	2.a/	.	gau-
4F\	.	_	.	.	.	.	.	.	.	.	.	.	.	.
1E	.	_	1c	.	-ctum_	.	.	.	.	.	.	.	.	.
!	!	!	!	!	!	!	!	!	!	!	!	!	!LO:HP:Z=15	!
.	.	.	.	.	.	.	.	.	.	.	.	4g/	>	.
.	.	.	.	.	.	.	.	.	.	.	.	2g/	)	.
=45	=45	=45	=45	=45	=45	=45	=45	=45	=45	=45	=45	=45	=45	=45
1D	.	est	1d	.	_	1r	.	.	0.r	.	.	2.f/	)	.
.	.	.	.	.	.	.	.	.	.	.	.	4g/	)	.
2F\	.	et_	1d	.	est.	1r	.	.	.	.	.	1.a	)	.
2G\	.	_	.	.	.	.	.	.	.	.	.	.	.	.
!	!	!	!	!	!	!	!LO:DY:X=-25:Z=-3	!	!	!	!	!	!	!
!	!	!	!	!	!	!LO:TX:rj:X=30:Z=20:i:t=declamatory	!	!	!	!	!	!	!	!
1A	.	ha-	1r	.	.	1c	mf	Ver-	.	.	.	.	.	.
.	.	.	.	.	.	.	.	.	.	.	.	2cc\	)	.
=46	=46	=46	=46	=46	=46	=46	=46	=46	=46	=46	=46	=46	=46	=46
!	!	!	!	!LO:DY:X=-10:Z=2	!	!	!	!	!	!	!	!	!	!
2G\	.	-bi-	2.B\	mp	Ver-	2e/	.	-bum	0.r	.	.	2b\	)	.
4F\	.	-ta-	.	.	.	2g/	.	ca-	.	.	.	2g/	)	.
4E\	.	.	4c\	.	.	.	.	.	.	.	.	.	.	.
2D\	.	-vit	2d\	.	.	2f/	.	-ro	.	.	.	2a/	)	.
2G\	.	in	2B\	.	-bum	2e/	.	fa-	.	.	.	2b\	)	.
1A	.	no-	1c	.	ca-	1f	.	-ctum_	.	.	.	2.a/	)	-di-
.	.	.	.	.	.	.	.	.	.	.	.	4g/	]	.
=47	=47	=47	=47	=47	=47	=47	=47	=47	=47	=47	=47	=47	=47	=47
0.G	.	-bis,	0d	.	-ro	1g	.	_	0.r	.	.	1b	.	-o;
.	.	.	.	.	.	1g	.	est,	.	.	.	1r	.	.
!	!	!	!	!	!	!	!	!	!	!	!	!	!LO:DY:X=-10:Z=-5	!
.	.	.	1B	.	fa-	2r	.	.	.	.	.	1g	mf	Ver-
!	!	!	!	!	!	!	!LO:DY:X=-20:Z=0	!	!	!	!	!	!	!
.	.	.	.	.	.	2d/	mp	ver-	.	.	.	.	.	.
=48	=48	=48	=48	=48	=48	=48	=48	=48	=48	=48	=48	=48	=48	=48
!	!	!	!	!	!	!	!	!	!	!	!	!LO:TX:i:Z=6:t=declamatory	!	!
0.r	.	.	1G	.	.	2.g/	.	-bum_	0.r	.	.	2b\	.	-bum
.	.	.	.	.	.	.	.	.	.	.	.	2dd\	.	ca-
.	.	.	.	.	.	4f/	.	_	.	.	.	.	.	.
.	.	.	0A	.	-ctum	2e/	.	ca-	.	.	.	2cc\	.	-ro
.	.	.	.	.	.	2d/	.	-ro	.	.	.	2b\	.	fa-
.	.	.	.	.	.	1e	.	fa-	.	.	.	1cc	.	-ctum_
=49	=49	=49	=49	=49	=49	=49	=49	=49	=49	=49	=49	=49	=49	=49
0.r	.	.	1B	.	est,_	1d	.	-ctum	1r	.	.	1dd	.	_
.	.	.	0G	.	_	0g	.	est,	1r	.	.	1dd	.	est...
!	!	!	!	!	!	!	!	!	!	!LO:DY:X=-20:Z=5	!	!	!	!
!	!	!	!	!	!	!	!	!	!LO:TX:i:X=10:Z=16:t=declamatory	!	!	!	!	!
.	.	.	.	.	.	.	.	.	1g	f	Ver-	1r	.	.
=50	=50	=50	=50	=50	=50	=50	=50	=50	=50	=50	=50	=50	=50	=50
!	!	!	!	!	!	!	!	!	!	!LO:HP:Z=5	!	!	!LO:HP:Z=10	!
0.r	.	.	0.r	.	.	1r	.	.	2b\	<	-bum	1dd	<	Ho-
.	.	.	.	.	.	.	.	.	2dd\	(	ca-	.	.	.
.	.	.	.	.	.	1.a	.	ver-	2cc\	(	-ro	1.ee	(	-stes_
.	.	.	.	.	.	.	.	.	2b\	(	fa-	.	.	.
.	.	.	.	.	.	.	.	.	1cc	(	-ctum	.	.	.
.	.	.	.	.	.	2g/	.	-bum	.	.	.	4dd\	(	_
.	.	.	.	.	.	.	.	.	.	.	.	4cc\	[	_
=51	=51	=51	=51	=51	=51	=51	=51	=51	=51	=51	=51	=51	=51	=51
!LO:TX:i:Z=20:t=maestoso	!	!	!LO:TX:i:Z=6:t=maestoso	!	!	!	!	!	!	!	!	!	!	!
[0.G	.	in_	0d	.	fa-	0g	.	ca-	0dd	[	est	0b	.	nunc
.	.	.	1d	.	-ctum_	2g/	.	-ro_	2r	.	.	1b	.	ar-
.	.	.	.	.	.	2f/	.	_	2dd\	.	et	.	.	.
=52	=52	=52	=52	=52	=52	=52	=52	=52	=52	=52	=52	=52	=52	=52
!	!	!	!	!	!	!	!LO:HP:Z=5	!	!	!	!	!	!	!
1G]	.	_	1B	.	_	1d	>	fa-	1dd	.	ha-	1g	.	-ce
0C	.	_	0c	.	_	1c	)	.	1ee	.	-bi-	1.g	.	vir-
!	!	!	!	!	!	!	!	!	!	!LO:HP:Z=15	!	!	!	!
.	.	.	.	.	.	2e/	)	-ctum_	2.gg\	>	-ta-	.	.	.
.	.	.	.	.	.	2f/	)	_	.	.	.	2a/	.	.
.	.	.	.	.	.	.	.	.	4ff\	)	.	.	.	.
=53	=53	=53	=53	=53	=53	=53	=53	=53	=53	=53	=53	=53	=53	=53
1r	.	.	1r	.	.	[0.g	)	est,_	2ee\	)	-vit	1b	.	-go
.	.	.	.	.	.	.	.	.	2dd\	)	in	.	.	.
!LO:TX:i:X=-10:Z=10:t=simile	!	!	!LO:TX:i:X=-10:Z=6:t=simile	!	!	!	!	!	!	!	!	!	!LO:HP:Z=5	!
0C	.	no-	0c	.	est,	.	.	.	0ee	)	no-	0cc	>	bo-
=54	=54	=54	=54	=54	=54	=54	=54	=54	=54	=54	=54	=54	=54	=54
1BB	.	-bis,_	1r	.	.	0.g]	]	_	1dd	)	.	1dd	)	.
0C	.	_	0c	.	fa-	.	.	.	0cc	)	.	1.ee	)	.
.	.	.	.	.	.	.	.	.	.	.	.	2dd\	)	.
=55	=55	=55	=55	=55	=55	=55	=55	=55	=55	=55	=55	=55	=55	=55
!	!	!	!	!	!	!	!	!	!	!	!	!	!LO:HPZ:X=-10	!
0.G	.	_	0d	.	.	1r	.	.	0b	]	-bis	1dd	]	-na
.	.	.	.	.	.	1r	.	.	.	.	.	1r	.	.
!	!	!	!	!	!	!	!LO:DY:X=-25:Z=2	!	!	!	!	!	!LO:DY:X=-40:Z=5	!
!	!	!	!	!	!	!LO:TX:i:X=20:Z=6:t=legato	!	!	!	!	!	!LO:TX:i:X=20:Z=16:t=legato	!	!
.	.	.	1B	.	-ctum	1g	mf	et	1r	.	.	1gg	mf	men-
=56	=56	=56	=56	=56	=56	=56	=56	=56	=56	=56	=56	=56	=56	=56
!	!LO:DY:X=-45:Z=5	!	!	!	!	!	!	!	!	!	!	!	!	!
!LO:TX:i:X=25:Z=8:t=legato	!	!	!	!	!	!	!	!	!	!	!	!	!	!
0c	mf	et	0e	.	est_	2g/	.	ha-	0.r	.	.	2.gg\	.	-tis_
.	.	.	.	.	.	2a/	.	-bi-	.	.	.	.	.	.
.	.	.	.	.	.	.	.	.	.	.	.	4ff\	.	_
.	.	.	.	.	.	2.cc\	.	-ta-	.	.	.	2ee\	.	_
.	.	.	.	.	.	.	.	.	.	.	.	2dd\	.	ab
.	.	.	.	.	.	4b\	.	.	.	.	.	.	.	.
2.c\	.	vi-	1A	.	_	2a/	.	-vit	.	.	.	1ee	.	ar-
.	.	.	.	.	.	2g/	.	in	.	.	.	.	.	.
4B\	.	.	.	.	.	.	.	.	.	.	.	.	.	.
=57	=57	=57	=57	=57	=57	=57	=57	=57	=57	=57	=57	=57	=57	=57
2A\	.	-di-	0.r	.	.	1a	.	no-	0.r	.	.	2cc\	.	.
2D\	.	.	.	.	.	.	.	.	.	.	.	2.ff\	.	.
2E\	.	.	.	.	.	2e/	.	.	.	.	.	.	.	.
.	.	.	.	.	.	.	.	.	.	.	.	4ee\	.	.
2C/	.	-mus	.	.	.	2g/	.	.	.	.	.	1ee	.	.
1D	.	glo-	.	.	.	1f	.	.	.	.	.	.	.	.
.	.	.	.	.	.	.	.	.	.	.	.	2dd\	.	.
=58	=58	=58	=58	=58	=58	=58	=58	=58	=58	=58	=58	=58	=58	=58
!	!	!	!	!	!	!	!	!	!LO:TX:i:Z=16:t=declamatory	!	!	!	!	!
1r	.	.	0.r	.	.	1e	.	-bis	1b	.	et	0ee	.	-ce
0E	.	-ri-	.	.	.	2r	.	.	2b\	.	vi-	.	.	.
!	!	!	!	!	!	!LO:TX:i:Z=6:t=declamatory	!	!	!	!	!	!	!	!
.	.	.	.	.	.	2e/	.	et	2b\	.	-di-	.	.	.
.	.	.	.	.	.	2e/	.	vi-	2b\	.	-mus	1r	.	.
.	.	.	.	.	.	2e/	.	-di-	2b\	.	glo-	.	.	.
=59	=59	=59	=59	=59	=59	=59	=59	=59	=59	=59	=59	=59	=59	=59
1C	.	-am	0.r	.	.	2e/	.	-mus_	2.cc\	.	.	1ee	.	an-
.	.	.	.	.	.	2c/	.	_	.	.	.	.	.	.
.	.	.	.	.	.	.	.	.	4b\	.	.	.	.	.
1r	.	.	.	.	.	2d/	.	glo-	2a/	.	-ri-	2ff\	.	.
.	.	.	.	.	.	2e/	.	.	2g/	.	-am	2.ee\	.	-nu-
1r	.	.	.	.	.	1f	.	-ri-	1a	.	e-	.	.	.
.	.	.	.	.	.	.	.	.	.	.	.	4dd\	.	.
.	.	.	.	.	.	.	.	.	.	.	.	2dd\	.	-e
=60	=60	=60	=60	=60	=60	=60	=60	=60	=60	=60	=60	=60	=60	=60
1E	.	e-	0.r	.	.	1e	.	-am_	1b	.	-ius.	2.ee\	.	fe-
.	.	.	.	.	.	.	.	.	.	.	.	4dd\	.	.
1F	.	.	.	.	.	2.a/	.	_	1r	.	.	4cc\	.	.
.	.	.	.	.	.	.	.	.	.	.	.	4b\	.	.
.	.	.	.	.	.	.	.	.	.	.	.	2cc\	.	.
.	.	.	.	.	.	4g/	.	_	.	.	.	.	.	.
2.G\	.	-ius_	.	.	.	1g	.	_	1r	.	.	2b\	.	-li-
.	.	.	.	.	.	.	.	.	.	.	.	2ee\	.	-ci-
8F\L	.	_	.	.	.	.	.	.	.	.	.	.	.	.
8E\J	.	_	.	.	.	.	.	.	.	.	.	.	.	.
=61	=61	=61	=61	=61	=61	=61	=61	=61	=61	=61	=61	=61	=61	=61
!	!LO:HP:Z=20	!	!	!	!	!	!LO:HP:Z=15	!	!	!	!	!	!LO:HP:Z=25	!
2D\	>	_	0.r	.	.	2.a/	>	e-	0.r	.	.	2ff\	>	-ter_
2C/	)	_	.	.	.	.	.	.	.	.	.	2.ee\	)	_
.	.	.	.	.	.	4g/	)	.	.	.	.	.	.	.
1D	)	_	.	.	.	2f/	)	.	.	.	.	.	.	.
.	.	.	.	.	.	.	.	.	.	.	.	4dd\	)	_
.	.	.	.	.	.	2d/	)	.	.	.	.	1dd	)	i-
1A	]	_	.	.	.	1e	]	.	.	.	.	.	.	.
.	.	.	.	.	.	.	.	.	.	.	.	2cc#i\	]	.
=62	=62	=62	=62	=62	=62	=62	=62	=62	=62	=62	=62	=62	=62	=62
*	*	*	*	*	*	*	*	*	*M3/1	*M3/1	*M3/1	*	*	*
*	*	*	*	*	*	*	*	*	*met(3)	*met(3)	*met(3)	*	*	*
!	!	!	!	!	!	!	!	!	!LO:TX:i:X=30:Z=16:t=bright and dance-like	!	!	!	!	!
!	!	!	!	!	!	!	!	!	!	!LO:DY:X=-20:Z=2	!	!	!	!
1B	.	_	0.r	.	.	1d	.	-ius	3%2dd	mf	Ho-	1dd	.	-te
.	.	.	.	.	.	.	.	.	3dd\	.	-di-	.	.	.
*	*	*	*	*	*	*M3/1	*M3/1	*M3/1	*	*	*	*	*	*
*	*	*	*	*	*	*met(3)	*met(3)	*met(3)	*	*	*	*	*	*
!	!	!	!	!	!	!LO:TX:i:X=-30:Z=16:t=bright and dance-like	!	!	!	!	!	!	!	!
1G	.	_	.	.	.	3%2g	.	Ho-	3%2dd	.	-e	1r	.	.
.	.	.	.	.	.	3g/	.	-di-	3ee\	.	ap-	.	.	.
*	*	*	*	*	*	*	*	*	*	*	*	*M3/1	*	*
*	*	*	*	*	*	*	*	*	*	*	*	*met(3)	*	*
!	!	!	!	!	!	!	!	!	!	!	!	!LO:TX:i:X=-110:Z=24:t=bright and dance-like	!	!
!	!	!	!	!	!	!	!	!	!	!	!	!	!LO:DY:Z=2:X=-25	!
1G	.	_	.	.	.	3%2g	.	-e	3%2gg	.	-pa-	3%2b	mf	pro_
.	.	.	.	.	.	3a/	.	ap-	3ff\	.	-ru-	3a/	.	_
=63	=63	=63	=63	=63	=63	=63	=63	=63	=63	=63	=63	=63	=63	=63
*M9/2	*M9/2	*	*M9/2	*M9/2	*	*M9/2	*M9/2	*	*M9/2	*M9/2	*	*M9/2	*M9/2	*
*met()	*met()	*met()	*met()	*met()	*met()	*met()	*met()	*met()	*met()	*met()	*met()	*met()	*met()	*met()
*MM408	*	*	*MM408	*	*	*MM408	*	*	*MM408	*	*	*MM408	*	*
!!primary-mensuration: met(3)
2%9r	.	.	2%9r	.	.	1cc	.	-pa-	1ee	.	-it	1a	.	no-
.	.	.	.	.	.	2b\	.	-ru-	2dd\	.	in	1dd	.	-bis
.	.	.	.	.	.	1a	.	-it	2ee\	.	Is-	.	.	.
.	.	.	.	.	.	.	.	.	1ee	.	-ra-	1cc#i	.	i-
.	.	.	.	.	.	2a/	.	in	.	.	.	.	.	.
.	.	.	.	.	.	1d	.	Is-	1dd	.	-hel	1dd	.	-ter,
.	.	.	.	.	.	2d/	.	-ra-	2r	.	.	2r	.	.
=64	=64	=64	=64	=64	=64	=64	=64	=64	=64	=64	=64	=64	=64	=64
2%9r	.	.	2%9r	.	.	1g	.	-hel	1dd	.	per	1b	.	pro_
.	.	.	.	.	.	2r	.	.	2cc\	.	Ma-	2cc\	.	_
.	.	.	.	.	.	1g	.	per	1b	.	-ri-	1dd	.	no-
.	.	.	.	.	.	2e/	.	Ma-	2cc\	.	-am	2cc\	.	.
.	.	.	.	.	.	2d/	.	.	1dd	.	Vir-	2b\	.	-bis
.	.	.	.	.	.	1f	.	-ri-	.	.	.	1a	.	i-
.	.	.	.	.	.	.	.	.	2cc\	.	-gi-	.	.	.
=65	=65	=65	=65	=65	=65	=65	=65	=65	=65	=65	=65	=65	=65	=65
2%9r	.	.	2%9r	.	.	2g/	.	-am_	1b	.	-nem	1g	.	.
.	.	.	.	.	.	2e/	.	_	.	.	.	.	.	.
.	.	.	.	.	.	1g	.	Vir-	2g/	.	et	2e/	.	.
.	.	.	.	.	.	.	.	.	2a/	.	per	1d	.	-ter,
.	.	.	.	.	.	1f#i	.	-gi-	1a	.	Jo-	.	.	.
.	.	.	.	.	.	.	.	.	.	.	.	2r	.	.
.	.	.	.	.	.	1g	.	-nem	1.g	.	-seph.	1dd	.	nam
.	.	.	.	.	.	2fi/	.	et	.	.	.	2dd\	.	si
=66	=66	=66	=66	=66	=66	=66	=66	=66	=66	=66	=66	=66	=66	=66
!	!	!	!LO:N:vis=1	!	!	!	!	!	!	!	!	!	!	!
2%9r	.	.	1.r	.	.	1g	.	per	1.r	.	.	2ee\	.	ve-
.	.	.	.	.	.	.	.	.	.	.	.	2.dd\	.	.
.	.	.	.	.	.	2e/	.	Io-	.	.	.	.	.	.
.	.	.	.	.	.	.	.	.	.	.	.	4cc\	.	.
!	!	!	!LO:N:vis=1	!	!	!	!	!	!	!	!	!	!	!
.	.	.	1.r	.	.	2c/	.	.	1.r	.	.	1cc	.	.
.	.	.	.	.	.	1d	.	.	.	.	.	.	.	.
.	.	.	.	.	.	.	.	.	.	.	.	2b\	.	.
*	*	*	*M9/2	*M9/2	*M9/2	*	*	*	*	*	*	*	*	*
*	*	*	*met(3)	*met(3)	*met(3)	*	*	*	*	*	*	*	*	*
.	.	.	1c	.	Sunt	1c	.	-seph,	1.r	.	.	1cc	.	-ra
!	!	!	!LO:TX:Z=12:i:t=stronger, but still dance-like	!	!	!	!	!	!	!	!	!	!	!
.	.	.	2d\	.	im-	2r	.	.	.	.	.	2r	.	.
=67	=67	=67	=67	=67	=67	=67	=67	=67	=67	=67	=67	=67	=67	=67
!	!	!	!	!	!	!	!	!	!LO:TX:i:X=-3:Z=12:t=stronger, but still dance-like	!	!	!	!	!
2%9r	.	.	1e	.	-ple-	1.c	.	per	1g	.	Sunt	1.cc	.	lo-
.	.	.	2f\	.	-ta	.	.	.	2a/	.	im-	.	.	.
.	.	.	1d	.	quae	1.G	.	Ma-	1b	.	-ple-	1.dd	.	-quar
.	.	.	2d\	.	prae-	.	.	.	2b\	.	-ta	.	.	.
.	.	.	1c	.	-di-	1g	.	-ri-	1cc	.	quae	1ee	.	pro-
.	.	.	2A/	.	-xit	2f/	.	-am	2cc\	.	prae-	2cc\	.	.
=68	=68	=68	=68	=68	=68	=68	=68	=68	=68	=68	=68	=68	=68	=68
2%9r	.	.	1G	.	Da-	1g	.	Vir-	1b	.	-di-	1dd	.	-tec-
.	.	.	1d	.	.	2f/	.	.	2b\	.	-xit	2b\	.	.
.	.	.	.	.	.	2d/	.	-gi-	2cc\	.	Da-	2a/	.	.
.	.	.	2c\	.	.	2.e/	.	-nem_	2.a/	.	.	2cc\	.	.
.	.	.	2d\	.	.	.	.	.	.	.	.	2b\	.	.
.	.	.	.	.	.	4d/	.	_	4g/	.	.	.	.	.
.	.	.	2B\	.	.	1d	.	per	1g	.	-ni-	2g/	.	.
.	.	.	1A	.	-ni-	.	.	.	.	.	.	2.a/	.	.
.	.	.	.	.	.	2c/	.	Jo-	2f#i/	.	.	.	.	.
.	.	.	.	.	.	.	.	.	.	.	.	4g/	.	.
=69	=69	=69	=69	=69	=69	=69	=69	=69	=69	=69	=69	=69	=69	=69
2%9r	.	.	1G	.	-el,	1d	.	-seph.	1.g	.	-el.	1b	.	-trix
.	.	.	2r	.	.	2r	.	.	.	.	.	2r	.	.
!	!	!	!	!	!	!LO:TX:i:X=-30:Z=12:t=pompous	!	!	!	!	!	!	!	!
.	.	.	[1.G	.	quae_	1g	.	Sunt	1.r	.	.	1b	.	tur-
.	.	.	.	.	.	2a/	.	im-	.	.	.	2cc\	.	.
.	.	.	1.G]	.	_	1b	.	-ple-	1.r	.	.	1dd	.	-ris
.	.	.	.	.	.	2b\	.	-ta	.	.	.	2dd\	.	ad_
=70	=70	=70	=70	=70	=70	=70	=70	=70	=70	=70	=70	=70	=70	=70
2%9r	)	.	1.r	.	.	1cc	.	quae	1.r	.	.	2ee\	.	_
.	.	.	.	.	.	.	.	.	.	.	.	1ee	.	in-
.	.	.	.	.	.	2b\	.	prae-	.	.	.	.	.	.
.	.	.	1.G	.	prae-	1b	.	-di-	1.r	.	.	1dd	.	.
.	.	.	.	.	.	2b\	.	-xit	.	.	.	1ee	.	.
.	.	.	1A	.	-di-	2cc\	.	Da-	1.r	.	.	.	.	.
.	.	.	.	.	.	2.a/	.	.	.	.	.	2cc\	.	.
.	.	.	2B\	.	-xit	.	.	.	.	.	.	2dd\	.	.
.	.	.	.	.	.	4g/	.	.	.	.	.	.	.	.
=71	=71	=71	=71	=71	=71	=71	=71	=71	=71	=71	=71	=71	=71	=71
!LO:N:vis=1	!	!	!	!	!	!	!	!	!	!	!	!	!	!
1.r	.	.	2G/	.	Da-	1g	.	-ni-	1.r	.	.	2b\	.	.
.	.	.	1d	.	-ni-	.	.	.	.	.	.	1a	.	.
.	.	.	.	.	.	2f#i/	.	.	.	.	.	.	.	.
!LO:N:vis=1	!	!	!	!	!	!	!	!	!	!	!	!	!	!
1.r	.	.	1G	.	-el._	1.g	.	.	1.r	.	.	1g	.	-star
.	.	.	2r	.	_	.	.	.	.	.	.	1r	.	.
*M9/2	*M9/2	*M9/2	*	*	*	*	*	*	*	*	*	*	*	*
*met(3)	*met(3)	*met(3)	*	*	*	*	*	*	*	*	*	*	*	*
!LO:TX:i:Z=10:t=pompous	!	!	!	!	!	!	!	!	!	!	!	!	!	!
!	!	!	!	!	!	!	!	!	!LO:TX:Z=8:X=-20:i:t=pompous	!	!	!	!	!
1G	.	per	1.r	.	.	1.g	.	-el.	1b	.	E-	.	.	.
.	.	.	.	.	.	.	.	.	.	.	.	1dd	.	at-
2F\	.	Ma-	.	.	.	.	.	.	2a/	.	.	.	.	.
=72	=72	=72	=72	=72	=72	=72	=72	=72	=72	=72	=72	=72	=72	=72
1E	.	-ri-	1.r	.	.	1.r	.	.	1.g	.	-ya	1ee	.	-que_
2F\	.	-am	.	.	.	.	.	.	.	.	.	2dd\	.	_
1G	.	Vir-	1.r	.	.	1.r	.	.	1b	.	vir-	1dd	.	es
2E\	.	-gi-	.	.	.	.	.	.	2cc\	.	-go	1gg	.	a-
1D	.	-nem	1.r	.	.	1.r	.	.	1dd	.	De-	.	.	.
.	.	.	.	.	.	.	.	.	.	.	.	2ff\	.	.
2D\	.	na-	.	.	.	.	.	.	2dd\	.	-um	[2dd\	.	-mi-
=73	=73	=73	=73	=73	=73	=73	=73	=73	=73	=73	=73	=73	=73	=73
2A\	.	.	1.r	.	.	1.r	.	.	1ee	.	ge-	2dd\]	.	.
1A	.	-tus	.	.	.	.	.	.	.	.	.	2.cc#i\	.	-ca_
.	.	.	.	.	.	.	.	.	2ee\	.	-nu-	.	.	.
.	.	.	.	.	.	.	.	.	.	.	.	4b\	.	_
1D	.	est,	1.r	.	.	1.r	.	.	1dd	.	-it	1.dd	.	pi-
2r	.	.	.	.	.	.	.	.	2dd\	.	si-	.	.	.
1G	.	ho-	1.d	.	Vir-	1.r	.	.	1b	.	-cut	1.dd	.	-is,
2A\	.	-di-	.	.	.	.	.	.	2cc\	.	di-	.	.	.
=74	=74	=74	=74	=74	=74	=74	=74	=74	=74	=74	=74	=74	=74	=74
1B	.	-e	1d	.	-go_	1.r	.	.	1dd	.	-vi-	1.r	.	.
2B\	.	ap-	2B\	.	_	.	.	.	2dd\	.	-na	.	.	.
!	!	!	!LO:TX:i:Z=8:t=legato	!	!	!	!	!	!	!	!	!	!	!
1c	.	-pa-	1A	.	De-	1.r	.	.	1ee	.	vo-	1.r	.	.
2c\	.	-ru-	2c\	.	-um	.	.	.	2ee\	.	-lu-	.	.	.
2B\	.	-it	2d\	.	ge-	1.r	.	.	1dd	.	-it	1.r	.	.
1A	.	in	2e\	.	.	.	.	.	.	.	.	.	.	.
!	!	!	!	!LO:HP:Z=15	!	!	!	!	!	!LO:HP:Z=25	!	!	!	!
.	.	.	2f\	<	.	.	.	.	2cc\	<	cle-	.	.	.
=75	=75	=75	=75	=75	=75	=75	=75	=75	=75	=75	=75	=75	=75	=75
!	!LO:HP:X=-50:Z=10	!	!	!	!	!	!	!	!	!	!	!	!	!
2G\	<	Is-	2g\	(	.	1.r	.	.	2b\	(	-men-	1.r	.	.
2F\	(	.	1d	(	.	.	.	.	2.a/	(	.	.	.	.
1G	(	-ra-	.	.	.	.	.	.	.	.	.	.	.	.
.	.	.	.	.	.	.	.	.	4g/	(	.	.	.	.
.	.	.	2B\	(	.	1.r	.	.	1g	(	.	1.r	.	.
1A	(	.	1c	(	.	.	.	.	.	.	.	.	.	.
.	.	.	.	.	.	.	.	.	2f#i/	(	-ti-	.	.	.
!	!	!	!	!	!	!	!	!	!	!	!	!	!LO:DY:X=-35:Z=5	!
!	!	!	!	!	!	!	!	!	!	!	!	!	!LO:HP:Z=5	!
1.G	[	.	2d\	(	.	1.r	.	.	1.g	[	-a	1.dd	mf < [	pi-
.	.	.	2.B\	(	-nu-	.	.	.	.	.	.	.	.	.
!	!	!	!	!LO:HP:X=30:Z=5	!	!	!	!	!	!	!	!	!	!
.	.	.	4A/	[	.	.	.	.	.	.	.	.	.	.
=76	=76	=76	=76	=76	=76	=76	=76	=76	=76	=76	=76	=76	=76	=76
!	!	!	!	!	!	!	!LO:DY:X=-5:Z=0	!	!	!	!	!	!	!
[1.C	.	-hel... _	0.c	.	-it	1e	mf	e-	1.r	.	.	1ee	.	.
.	.	.	.	.	.	2d/	.	.	.	.	.	2cc\	.	.
1.C_	.	_	.	.	.	1c	.	-ya	1.r	.	.	1ee	.	.
.	.	.	.	.	.	2r	.	.	.	.	.	2ff\	.	.
1.C]	.	_	1c	.	si-	1e	.	vir-	1.r	.	.	1gg	.	.
.	.	.	2d\	.	-cut	2f/	.	-go	.	.	.	2ff\	.	.
=77	=77	=77	=77	=77	=77	=77	=77	=77	=77	=77	=77	=77	=77	=77
1.r	.	.	1e	.	di-	1g	.	De-	1.r	.	.	2ee\	.	.
.	.	.	.	.	.	.	.	.	.	.	.	2dd\	.	.
.	.	.	1c	.	-vi-	2g/	.	-um	.	.	.	2ee\	.	.
1.r	.	.	.	.	.	1a	.	ge-	1.r	.	.	2ee\	.	.
.	.	.	2f\	.	-na	.	.	.	.	.	.	2.dd\	.	.
.	.	.	2g\	.	vo-	2a/	.	-nu-	.	.	.	.	.	.
.	.	.	.	.	.	.	.	.	.	.	.	4cc\	.	.
1.r	.	.	2e\	.	.	1g	.	-it	1.r	.	.	1cc	.	.
.	.	.	1d	.	-lu-	.	.	.	.	.	.	.	.	.
.	.	.	.	.	.	2f/	.	si-	.	.	.	2b\	.	.
=78	=78	=78	=78	=78	=78	=78	=78	=78	=78	=78	=78	=78	=78	=78
!	!	!	!	!	!	!	!LO:HP:Z=30	!	!	!	!	!	!	!
1.r	.	.	1c	.	-it	1g	<	-cut	1.r	.	.	1cc	.	-is,
.	.	.	2r	.	.	2g/	(	di-	.	.	.	2r	.	.
!	!	!	!	!LO:HP:Z=25	!	!	!	!	!	!	!	!	!LO:HP:Z=15	!
1.r	.	.	1c	<	cle-	1e	(	-vi-	1.r	.	.	1g	<	o-
.	.	.	2A/	(	.	2f/	(	-na	.	.	.	2a/	(	.
1.r	.	.	1G	(	-men-	2g/	(	vo-	1.r	.	.	2.b\	(	.
.	.	.	.	.	.	1a	(	-lu-	.	.	.	.	.	.
.	.	.	.	.	.	.	.	.	.	.	.	4cc\	(	.
.	.	.	2F#i/	(	.	.	.	.	.	.	.	2dd\	(	.
=79	=79	=79	=79	=79	=79	=79	=79	=79	=79	=79	=79	=79	=79	=79
1.r	.	.	2G/	(	.	1g	(	-it	1.r	.	.	2b\	(	.
.	.	.	1A	(	.	.	.	.	.	.	.	2.cc\	(	.
.	.	.	.	.	.	2f#i/	(	cle-	.	.	.	.	.	.
.	.	.	.	.	.	.	.	.	.	.	.	4dd\	(	.
1.r	.	.	2.G/	(	.	1g	(	-men-	1.r	.	.	2ee\	(	.
.	.	.	.	.	.	.	.	.	.	.	.	2.dd\	(	.
.	.	.	4A/	(	.	.	.	.	.	.	.	.	.	.
.	.	.	2B\	(	.	2fi/	(	.	.	.	.	.	.	.
.	.	.	.	.	.	.	.	.	.	.	.	4cc\	(	.
1.r	.	.	2c\	(	-ti-	2e/	(	.	1.r	.	.	1cc	(	-pti-
.	.	.	1G	[	-a,	1d	[	-ti-	.	.	.	.	.	.
.	.	.	.	.	.	.	.	.	.	.	.	2b\	[	.
=80	=80	=80	=80	=80	=80	=80	=80	=80	=80	=80	=80	=80	=80	=80
*M3/1	*M3/1	*	*M3/1	*M3/1	*	*M3/1	*M3/1	*	*M3/1	*M3/1	*	*M3/1	*M3/1	*
*met(O)	*met(O)	*met()	*met(O)	*met(O)	*met()	*met(O)	*met(O)	*met()	*met(O)	*met(O)	*met()	*met(O)	*met(O)	*met()
*MM272	*	*	*MM272	*	*	*MM272	*	*	*MM272	*	*	*MM272	*	*
!LO:TX:i:X=10:Z=10:t=maestoso	!	!	!	!	!	!	!	!	!	!	!	!	!	!
!	!LO:DY:X=-15:Z=0	!	!	!	!	!	!	!	!	!	!	!	!	!
1C	f	qua-	1r	.	.	1c	.	-a	0.r	.	.	1cc	.	-ma
!	!	!	!LO:TX:i:Z=16:t=maestoso	!	!	!LO:TX:i:Z=6:t=maestoso	!	!	!	!	!	!LO:TX:i:Z=6:t=maestoso	!	!
!	!	!	!	!LO:DY:Z=-2:X=-20	!	!	!LO:DY:Z=2:X=-20	!	!	!	!	!	!LO:DY:Z=2:X=-20	!
1C	.	-si	1.c	f	qua-	2.e/	f	qua-	.	.	.	2.cc\	f	Chri-
.	.	.	.	.	.	4e/	.	-si	.	.	.	4b\	.	.
1C	.	u-	.	.	.	2e/	.	u-	.	.	.	2g/	.	.
.	.	.	[2c\	.	-si_	2e/	.	-ni-	.	.	.	[2a/	.	.
=81	=81	=81	=81	=81	=81	=81	=81	=81	=81	=81	=81	=81	=81	=81
2F\	.	-ni-	4c\]	.	_	2f/	.	-ge-	0.r	.	.	4a/]	.	.
.	.	.	4d\	.	_	.	.	.	.	.	.	4b\	.	.
2E\	.	.	2e\	.	-u-	2g/	.	.	.	.	.	2cc\	.	.
1D	.	-ge-	2f\	.	-ni-	2a/	.	-ni-	.	.	.	2dd\	.	.
.	.	.	2d\	.	-ge-	2f/	.	-ti-	.	.	.	2ff\	.	.
1C	.	-ni-	2.e\	.	-ni-	1g	.	-a	.	.	.	2ee\	.	.
.	.	.	.	.	.	.	.	.	.	.	.	[2gg\	.	.
.	.	.	4d\	.	.	.	.	.	.	.	.	.	.	.
=82	=82	=82	=82	=82	=82	=82	=82	=82	=82	=82	=82	=82	=82	=82
!	!	!	!	!	!	!	!	!	!	!LO:DY:X=-10:Z=2	!	!	!	!
!	!	!	!	!	!	!	!	!	!LO:TX:i:Z=6:X=20:t=maestoso	!	!	!	!	!
1C	.	-ti-	1c	.	-ti-	2e/	.	Pa-	[0.gl	f	a.	4gg\]	.	.
.	.	.	.	.	.	.	.	.	.	.	.	4ff\	.	.
.	.	.	.	.	.	2g/	.	.	.	.	.	2ee\	.	.
2r	.	.	2d\	.	-a	2f/	.	.	.	.	.	2dd\	.	.
2C/	.	-a	1.g	.	Pa-	2e/	.	.	.	.	.	1cc	.	-sti-
1G	.	Pa-	.	.	.	1d	.	.	.	.	.	.	.	.
.	.	.	.	.	.	.	.	.	.	.	.	2b\	.	-co-
=83	=83	=83	=83	=83	=83	=83	=83	=83	=83	=83	=83	=83	=83	=83
0.Cl	.	-tre.	0.el	.	-tre.	0.cl	.	-tre.	0.g]	.	.	0.ccl	.	-lis.
!!LO:LB:i:g=z
=84||	=84||	=84||	=84||	=84||	=84||	=84||	=84||	=84||	=84||	=84||	=84||	=84||	=84||	=84||
*>C	*>C	*>C	*>C	*>C	*>C	*>C	*>C	*>C	*>C	*>C	*>C	*>C	*>C	*>C
*M6/1	*M6/1	*	*M6/1	*M6/1	*	*M6/1	*M6/1	*	*M6/1	*M6/1	*	*M6/1	*M6/1	*
*met(C2)	*met(C2)	*met(C2)	*met(C2)	*met(C2)	*met(C2)	*met(C2)	*met(C2)	*met(C2)	*met(C2)	*met(C2)	*met(C2)	*met(C2)	*met(C2)	*met(C2)
*MM424	*	*	*MM424	*	*	*MM424	*	*	*MM424	*	*	*MM424	*	*
!Chigi: Baryphanos rests for four longs here; probable scribal error]	!	!	!	!	!	!	!LO:DY:X=10:Z=2	!	!	!	!	!	!	!
!!section: Puer natus est nobis - Mitibus - Universialis ecclesie - Sus vallasus
!!!OMD: Tertia pars
0r	.	.	0r	.	.	0c	p	Pu-	0r	.	.	0r	.	.
!	!	!	!	!	!	!	!	!	!	!	!	!	!LO:DY:X=-15:Z=2	!
0r	.	.	0r	.	.	0g	.	.	0r	.	.	0g	p	Pu-
0r	.	.	0r	.	.	0g	.	-er	0r	.	.	0dd	.	.
=85	=85	=85	=85	=85	=85	=85	=85	=85	=85	=85	=85	=85	=85	=85
0r	.	.	0r	.	.	1.g	.	na-	0r	.	.	1dd	.	-er
.	.	.	.	.	.	.	.	.	.	.	.	1dd	.	na-
.	.	.	.	.	.	2f/	.	.	.	.	.	.	.	.
0r	.	.	0r	.	.	1g	.	.	0r	.	.	1ee	.	.
.	.	.	.	.	.	1.b-i	.	.	.	.	.	1dd	.	-tus_
0r	.	.	0r	.	.	.	.	.	0r	.	.	1cc	.	_
.	.	.	.	.	.	2a/	.	.	.	.	.	.	.	.
.	.	.	.	.	.	1a	.	-tus	.	.	.	1cc	.	est
=86	=86	=86	=86	=86	=86	=86	=86	=86	=86	=86	=86	=86	=86	=86
0r	.	.	0r	.	.	1f	.	est_	0r	.	.	1dd	.	no-
.	.	.	.	.	.	1a	.	_	.	.	.	1cc	.	.
!	!LO:DY:X=-30:Z=1	!	!	!LO:DY:X=-30:Z=2	!	!	!	!	!	!LO:DY:X=-30:Z=2	!	!	!	!
0C	mp	Pu-	0c	mp	Pu-	1g	.	_	[0g	mp	Pu-	0ee	.	.
.	.	.	.	.	.	1.cc	.	no-	.	.	.	.	.	.
[0G	.	.	0d	.	.	.	.	.	0g]	.	.	1dd	.	.
.	.	.	.	.	.	2b\	.	.	.	.	.	.	.	.
.	.	.	.	.	.	[1b	.	.	.	.	.	[1dd	.	.
=87	=87	=87	=87	=87	=87	=87	=87	=87	=87	=87	=87	=87	=87	=87
0G]	.	.	[0d	.	-er_	1b]	.	.	[0dd	.	.	1dd]	.	.
.	.	.	.	.	.	1b	.	.	.	.	.	0gg	.	.
[0G	.	-er_	0d_	.	_	1g	.	.	0dd]	.	.	.	.	.
.	.	.	.	.	.	1.g	.	-bis_	.	.	.	2ff\	.	.
.	.	.	.	.	.	.	.	.	.	.	.	2ee\	.	.
0G]	.	_	0d]	.	_	.	.	.	0dd	.	-er	0dd	.	-bis
.	.	.	.	.	.	4f/	.	_	.	.	.	.	.	.
.	.	.	.	.	.	4e/	.	_	.	.	.	.	.	.
.	.	.	.	.	.	1d	.	_	.	.	.	.	.	.
=88	=88	=88	=88	=88	=88	=88	=88	=88	=88	=88	=88	=88	=88	=88
!	!	!	!	!	!	!	!LO:DY:X=-10:Z=2	!	!	!	!	!	!	!
0r	.	.	0r	.	.	1c	p	et_	0r	.	.	1r	.	.
!	!	!	!	!	!	!	!	!	!	!	!	!	!LO:DY:X=-15:Z=2	!
.	.	.	.	.	.	1.g	.	_	.	.	.	1g	p	et_
0r	.	.	0r	.	.	.	.	.	0r	.	.	1dd	.	_
.	.	.	.	.	.	2f/	.	_	.	.	.	.	.	.
.	.	.	.	.	.	1g	.	_	.	.	.	1dd	.	fi-
0r	.	.	0r	.	.	1g	.	fi-	0r	.	.	1ee	.	.
.	.	.	.	.	.	[1b-i	.	.	.	.	.	1dd	.	-li-
=89	=89	=89	=89	=89	=89	=89	=89	=89	=89	=89	=89	=89	=89	=89
0r	.	.	0r	.	.	2b-\]	.	.	0r	.	.	0cc	.	-us_
.	.	.	.	.	.	2a/	.	.	.	.	.	.	.	.
.	.	.	.	.	.	0a	.	.	.	.	.	.	.	.
0r	.	.	0r	.	.	.	.	.	0r	.	.	0b-i	.	_
.	.	.	.	.	.	1g	.	-li-	.	.	.	.	.	.
0r	.	.	0r	.	.	0a	.	-us	0r	.	.	1a	.	da-
.	.	.	.	.	.	.	.	.	.	.	.	[1cc	.	.
=90	=90	=90	=90	=90	=90	=90	=90	=90	=90	=90	=90	=90	=90	=90
0r	.	.	0r	.	.	1f	.	da-	0r	.	.	2cc\]	.	.
.	.	.	.	.	.	.	.	.	.	.	.	2dd\	.	.
.	.	.	.	.	.	1.g	.	.	.	.	.	1ee	.	.
0r	.	.	0r	.	.	.	.	.	0r	.	.	1.ee	.	.
.	.	.	.	.	.	2f/	.	.	.	.	.	.	.	.
.	.	.	.	.	.	0f	.	-tus	.	.	.	.	.	.
.	.	.	.	.	.	.	.	.	.	.	.	2dd\	.	.
0r	.	.	0r	.	.	.	.	.	0r	.	.	1dd	.	-tus_
.	.	.	.	.	.	1f	.	est_	.	.	.	1ff	.	_
=91	=91	=91	=91	=91	=91	=91	=91	=91	=91	=91	=91	=91	=91	=91
0r	.	.	0r	.	.	1g	.	_	0r	.	.	1ee	.	est_
.	.	.	.	.	.	1f	.	_	.	.	.	1dd	.	_
0r	.	.	0r	.	.	1.c	.	_	0r	.	.	2ee\	.	_
.	.	.	.	.	.	.	.	.	.	.	.	2.ee\	.	no-
.	.	.	.	.	.	.	.	.	.	.	.	4dd\	.	.
.	.	.	.	.	.	2e/	.	_	.	.	.	2cc\	.	.
0r	.	.	0r	.	.	0d	.	no-	0r	.	.	1.b	.	.
.	.	.	.	.	.	.	.	.	.	.	.	2a/	.	.
=92	=92	=92	=92	=92	=92	=92	=92	=92	=92	=92	=92	=92	=92	=92
0r	.	.	0r	.	.	1c	.	.	0r	.	.	1cc	.	.
.	.	.	.	.	.	1e	.	.	.	.	.	1cc	.	.
!	!LO:DY:X=-35:Z=2	!	!	!LO:DY:X=-30:Z=2	!	!	!	!	!	!LO:DY:X=-30:Z=2	!	!	!	!
[0G	mf	na-	[0d	mp	na-	1d	.	.	0.dd	mp	na-	2b\	.	.
.	.	.	.	.	.	.	.	.	.	.	.	2.dd\	.	.
.	.	.	.	.	.	0.g	.	.	.	.	.	.	.	.
.	.	.	.	.	.	.	.	.	.	.	.	4cc\	.	.
.	.	.	.	.	.	.	.	.	.	.	.	4b\	.	.
.	.	.	.	.	.	.	.	.	.	.	.	4a/	.	.
0G]	.	.	0d]	.	.	.	.	.	.	.	.	1g	.	.
.	.	.	.	.	.	.	.	.	1b	.	.	1b	.	.
=93	=93	=93	=93	=93	=93	=93	=93	=93	=93	=93	=93	=93	=93	=93
0A	.	.	0c	.	-tus	1f	.	-bis_	1cc	.	.	1a	.	.
.	.	.	.	.	.	1e	.	_	1.ee	.	.	1cc	.	.
0G	.	.	1.d	.	est_	0g	.	_	.	.	.	1b	.	-bis._
.	.	.	.	.	.	.	.	.	4dd\	.	.	.	.	.
.	.	.	.	.	.	.	.	.	4cc\	.	.	.	.	.
.	.	.	.	.	.	.	.	.	1b	.	.	1g	.	_
.	.	.	2e\	.	_	.	.	.	.	.	.	.	.	.
1F	.	-tus	0f	.	_	0a	.	_	1a	.	-tus_	2r	.	.
.	.	.	.	.	.	.	.	.	.	.	.	1cc	.	Mi-
1F	.	est	.	.	.	.	.	.	[1cc	.	_	.	.	.
.	.	.	.	.	.	.	.	.	.	.	.	2dd\	.	.
=94	=94	=94	=94	=94	=94	=94	=94	=94	=94	=94	=94	=94	=94	=94
0F	.	no-	1r	.	.	1.a	.	mi-	1cc]	.	_	1.ff	.	-ti-
.	.	.	1f	.	no-	.	.	.	1dd	.	est_	.	.	.
.	.	.	.	.	.	2b\	.	.	.	.	.	2ee\	.	.
0C	.	.	1g	.	.	1cc	.	.	1cc	.	_	1ee	.	-bus
.	.	.	1e	.	.	1.cc	.	-ti-	1.ee	.	no-	1cc	.	ar-
0G	.	.	1.g	.	.	.	.	.	.	.	.	1dd	.	.
.	.	.	.	.	.	2b\	.	.	2dd\	.	.	.	.	.
.	.	.	.	.	.	1b	.	-bus	[1dd	.	-bis_	[1gg	.	.
.	.	.	4f\	.	.	.	.	.	.	.	.	.	.	.
.	.	.	4e\	.	.	.	.	.	.	.	.	.	.	.
=95	=95	=95	=95	=95	=95	=95	=95	=95	=95	=95	=95	=95	=95	=95
!	!	!	!	!	!	!	!LO:DY:X=0:Z=2	!	!	!	!	!	!	!
0G	.	-bis	0d	.	-bis	1g	p	ar-	0dd]	.	_	2gg\]	.	.
.	.	.	.	.	.	.	.	.	.	.	.	2ff\	.	.
.	.	.	.	.	.	1b	.	.	.	.	.	1dd	.	-bi-
0r	.	.	0r	.	.	1cc	.	-bi-	0r	.	.	0ee	.	-tri-
.	.	.	.	.	.	1a	.	.	.	.	.	.	.	.
0r	.	.	0r	.	.	2g/	.	-tri-	0r	.	.	0ee	.	-is
.	.	.	.	.	.	2a/	.	.	.	.	.	.	.	.
.	.	.	.	.	.	2g/	.	.	.	.	.	.	.	.
.	.	.	.	.	.	[2e/	.	-is_	.	.	.	.	.	.
=96	=96	=96	=96	=96	=96	=96	=96	=96	=96	=96	=96	=96	=96	=96
!	!	!	!	!	!	!	!	!	!	!	!	!	!LO:DY:X=-15:Z=3	!
0r	.	.	0r	.	.	2e/]	.	_	0r	.	.	1ee	p	o-
.	.	.	.	.	.	1g	.	_	.	.	.	.	.	.
.	.	.	.	.	.	.	.	.	.	.	.	2dd\	.	.
.	.	.	.	.	.	2e/	.	o-	.	.	.	2ee\	.	.
0r	.	.	0r	.	.	1.g	.	-ra	0r	.	.	2dd\	.	.
.	.	.	.	.	.	.	.	.	.	.	.	1b	.	-ra
.	.	.	.	.	.	2f/	.	ve-	.	.	.	2.dd\	.	ve-
0r	.	.	0r	.	.	2g/	.	.	0r	.	.	.	.	.
.	.	.	.	.	.	.	.	.	.	.	.	4cc\	.	.
.	.	.	.	.	.	2e/	.	.	.	.	.	1cc	.	.
.	.	.	.	.	.	1d	.	.	.	.	.	.	.	.
.	.	.	.	.	.	.	.	.	.	.	.	2b\	.	.
=97	=97	=97	=97	=97	=97	=97	=97	=97	=97	=97	=97	=97	=97	=97
!	!LO:DY:X=-10:Z=12	!	!	!LO:DY:X=-10:Z=12	!	!	!	!	!	!LO:DY:X=-10:Z=8	!	!	!	!
0C	mp	et_	0e	mp	et_	0c	.	-lit	[0g	mp	et_	0cc	.	-lit
!	!LO:HP:Z=10	!	!	!LO:HP:Z=12	!	!	!	!	!	!LO:HP:Z=10	!	!	!	!
[0G	<	_	[0d	<	_	1.B	.	ad-	0g]	<	_	1dd	.	ad-
.	.	.	.	.	.	.	.	.	.	.	.	1.dd	.	-de-
.	.	.	.	.	.	2c/	.	.	.	.	.	.	.	.
0G]	(	_	0d]	(	_	1d	.	-de-	[0dd	(	_	.	.	.
.	.	.	.	.	.	.	.	.	.	.	.	2cc\	.	.
.	.	.	.	.	.	[1g	.	.	.	.	.	2b\	.	.
.	.	.	.	.	.	.	.	.	.	.	.	2a/	.	.
=98	=98	=98	=98	=98	=98	=98	=98	=98	=98	=98	=98	=98	=98	=98
0G	[	_	0d	[	_	2g/]	.	.	0dd]	[	_	0b	.	-re
.	.	.	.	.	.	2f/	.	.	.	.	.	.	.	.
.	.	.	.	.	.	1g	.	.	.	.	.	.	.	.
0r	.	.	0r	.	.	1a	.	-re	0r	.	.	1cc	.	na-
.	.	.	.	.	.	1.cc	.	na-	.	.	.	1a	.	.
0r	.	.	0r	.	.	.	.	.	0r	.	.	1dd	.	.
.	.	.	.	.	.	2b\	.	.	.	.	.	.	.	.
.	.	.	.	.	.	1a	.	.	.	.	.	1cc	.	.
=99	=99	=99	=99	=99	=99	=99	=99	=99	=99	=99	=99	=99	=99	=99
0r	.	.	0r	.	.	2d/	.	.	0r	.	.	1ff	.	.
.	.	.	.	.	.	1a	.	.	.	.	.	.	.	.
.	.	.	.	.	.	.	.	.	.	.	.	2ee\	.	.
.	.	.	.	.	.	2f/	.	.	.	.	.	2ff\	.	.
0r	.	.	0r	.	.	1.a	.	.	0r	.	.	2ee\	.	.
.	.	.	.	.	.	.	.	.	.	.	.	1cc	.	.
.	.	.	.	.	.	2g/	.	.	.	.	.	2.ee\	.	.
0r	.	.	0r	.	.	2a/	.	.	0r	.	.	.	.	.
.	.	.	.	.	.	.	.	.	.	.	.	4dd\	.	.
.	.	.	.	.	.	2f/	.	.	.	.	.	1dd	.	.
.	.	.	.	.	.	1e	.	.	.	.	.	.	.	.
.	.	.	.	.	.	.	.	.	.	.	.	2cc#i\	.	.
=100	=100	=100	=100	=100	=100	=100	=100	=100	=100	=100	=100	=100	=100	=100
!	!LO:DY:X=-10:Z=12	!	!	!LO:HP:Z=10:X=20	!	!	!LO:HP:Z=25	!	!	!LO:HP:X=10:Z=5	!	!	!	!
!	!	!	!	!LO:DY:X=-20:Z=10	!	!	!	!	!	!LO:DY:X=-20:Z=5	!	!	!	!
0G	mp	fi-	0d	mp <	fi-	1d	<	.	0dd	mf <	fi-	1dd	.	.
.	.	.	.	.	.	1.g	(	.	.	.	.	1b	.	.
!	!LO:HP:Z=7	!	!	!	!	!	!	!	!	!	!	!	!	!
1C	<	.	1c	(	.	.	.	.	1ee	(	.	1cc	.	.
.	.	.	.	.	.	2f/	(	.	.	.	.	.	.	.
1G	(	.	1B	(	.	1g	(	.	1.dd	(	.	1dd	.	.
0A	(	-li-	1.c	(	.	1e	(	.	.	.	.	0a	.	-tus
.	.	.	.	.	.	.	.	.	2cc\	(	.	.	.	.
.	.	.	.	.	.	[1a	(	.	1cc	(	-li-	.	.	.
.	.	.	2d\	(	-li-	.	.	.	.	.	.	.	.	.
=101	=101	=101	=101	=101	=101	=101	=101	=101	=101	=101	=101	=101	=101	=101
0E	(	-us_	0e	(	-us_	1a]	(	.	0b	(	-us_	0r	.	.
.	.	.	.	.	.	1g#i	(	.	.	.	.	.	.	.
!	!	!	!	!	!	!	!	!	!	!	!	!	!LO:HP:Z=5	!
0F	(	_	0c	(	_	0a	(	-tus	[0a	(	_	0cc	<	san-
0D	[	_	0d	[	_	1r	(	.	0a]	[	_	1.ff	(	.
!	!	!	!	!	!	!	!LO:HPZ:X=30:	!	!	!	!	!	!	!
.	.	.	.	.	.	1a	[	san-	.	.	.	.	.	.
.	.	.	.	.	.	.	.	.	.	.	.	2ee\	(	.
=102	=102	=102	=102	=102	=102	=102	=102	=102	=102	=102	=102	=102	=102	=102
0r	.	.	0r	.	.	1.g	.	.	0r	.	.	1ee	[	-ctis_
.	.	.	.	.	.	.	.	.	.	.	.	2dd\	.	_
.	.	.	.	.	.	2e/	.	.	.	.	.	2ee\	.	_
0r	.	.	0r	.	.	2.f/	.	.	0r	.	.	2dd\	.	nos_
.	.	.	.	.	.	.	.	.	.	.	.	2.b\	.	_
.	.	.	.	.	.	4g/	.	.	.	.	.	.	.	.
.	.	.	.	.	.	2a/	.	.	.	.	.	.	.	.
.	.	.	.	.	.	.	.	.	.	.	.	4cc\	.	_
.	.	.	.	.	.	2b-i\	.	.	.	.	.	2dd\	.	_
0r	.	.	0r	.	.	2a/	.	-ctis_	0r	.	.	2.ee\	.	_
.	.	.	.	.	.	1f	.	_	.	.	.	.	.	.
.	.	.	.	.	.	.	.	.	.	.	.	4dd\	.	_
.	.	.	.	.	.	.	.	.	.	.	.	2dd\	.	_
.	.	.	.	.	.	[2a/	.	nos_	.	.	.	2cc\	.	.
=103	=103	=103	=103	=103	=103	=103	=103	=103	=103	=103	=103	=103	=103	=103
0r	.	.	0r	.	.	4a/]	.	_	0r	.	.	2dd\	.	_
.	.	.	.	.	.	4g/	.	_	.	.	.	.	.	.
.	.	.	.	.	.	1g	.	_	.	.	.	2b\	.	_
.	.	.	.	.	.	.	.	.	.	.	.	1a	.	_
.	.	.	.	.	.	2f#i/	.	_	.	.	.	.	.	.
!	!	!	!	!	!	!	!LO:HP:Z=5	!	!	!	!	!	!	!
0r	.	.	0r	.	.	0g	<	or-	0r	.	.	1g	.	or-
.	.	.	.	.	.	.	.	.	.	.	.	1b	.	.
!	!LO:DY:X=-30:Z=2	!	!	!LO:HP:Z=15	!	!	!	!	!	!LO:HP:Z=5	!	!	!	!
!	!	!	!	!LO:DY:X=-30:Z=12	!	!	!	!	!	!LO:DY:X=-20:Z=5	!	!	!	!
[0F	mf	da-	0c	mf <	da-	0a	(	.	[0cc	f <	da-	1cc	.	.
.	.	.	.	.	.	.	.	.	.	.	.	[1a	.	.
=104	=104	=104	=104	=104	=104	=104	=104	=104	=104	=104	=104	=104	=104	=104
!	!LO:HP:X=-30:Z=10	!	!	!	!	!	!	!	!	!	!	!	!	!
1F]	<	.	[0f	(	.	0a	(	-bis	1cc]	(	.	1a]	.	.
1D	(	.	.	.	.	.	.	.	1.dd	(	.	1.f	.	.
1F	(	.	0f]	(	.	0a	(	post_	.	.	.	.	.	.
.	.	.	.	.	.	.	.	.	2cc\	(	.	2e/	.	.
1F	(	-tus	.	.	.	.	.	.	1cc	(	-tus	1c	.	-bis
0F	(	est_	[0c	(	-tus_	0f	(	_	0cc	(	est	0r	.	.
=105	=105	=105	=105	=105	=105	=105	=105	=105	=105	=105	=105	=105	=105	=105
!	!	!	!	!	!	!	!	!	!	!	!	!	!LO:HP:Z=25	!
0C	[	_	0c]	[	_	0e	[	ma-	1cc	[	no-	1.g	<	post_
.	.	.	.	.	.	.	.	.	1.ee	.	.	.	.	.
.	.	.	.	.	.	.	.	.	.	.	.	2a/	(	_
0r	.	.	0r	.	.	1.g	.	-la_	.	.	.	2b\	(	_
.	.	.	.	.	.	.	.	.	4dd\	.	.	2cc\	(	_
.	.	.	.	.	.	.	.	.	4cc\	.	.	.	.	.
.	.	.	.	.	.	.	.	.	1b	.	.	1dd	(	_
.	.	.	.	.	.	2f/	.	_	.	.	.	.	.	.
0r	.	.	0r	.	.	1e	.	_	1cc	.	.	1ee	(	ma-
.	.	.	.	.	.	1d	.	_	1dd	.	.	2ff\	(	.
.	.	.	.	.	.	.	.	.	.	.	.	[2dd\	(	-la_
=106	=106	=106	=106	=106	=106	=106	=106	=106	=106	=106	=106	=106	=106	=106
0r	.	.	0r	.	.	1g	.	ce-	2b\	.	.	2dd\]	(	_
!	!	!	!	!	!	!	!	!	!	!	!	!	!LO:HPZ:X=-10	!
.	.	.	.	.	.	.	.	.	2g/	.	.	1gg	[	_
.	.	.	.	.	.	1d	.	-li-	1a	.	.	.	.	.
.	.	.	.	.	.	.	.	.	.	.	.	2ff#i\	.	ce-
0G	.	no-	0d	.	est_	1B	.	-co-	0g	.	-bis	1.gg	.	-li-
.	.	.	.	.	.	1.d	.	.	.	.	.	.	.	.
.	.	.	.	.	.	.	.	.	.	.	.	2ffi\	.	.
1C	.	.	0e	.	_	.	.	.	0r	.	.	1ee	.	.
.	.	.	.	.	.	2c/	.	.	.	.	.	.	.	.
1E	.	.	.	.	.	[1c	.	.	.	.	.	1cc	.	.
=107	=107	=107	=107	=107	=107	=107	=107	=107	=107	=107	=107	=107	=107	=107
0D	.	.	0f	.	no-	1c]	.	.	0r	.	.	1.dd	.	-co-
.	.	.	.	.	.	1B	.	.	.	.	.	.	.	.
.	.	.	.	.	.	.	.	.	.	.	.	4cc\	.	.
.	.	.	.	.	.	.	.	.	.	.	.	4dd\	.	.
!	!	!	!	!	!	!	!	!	!	!LO:DY:X=-20:Z=2	!	!	!	!
!	!	!	!	!	!	!	!	!	!LO:TX:i:X=10:Z=6:t=exultant and marcato	!	!	!	!	!
0C	.	.	1.e	.	.	0c	.	-lis.	2cc\	f	u-	1.ee	.	.
.	.	.	.	.	.	.	.	.	2cc\	.	-ni-	.	.	.
.	.	.	.	.	.	.	.	.	2cc\	.	-ver-	.	.	.
.	.	.	2f\	.	.	.	.	.	2cc\	.	-sa-	4dd\	.	.
.	.	.	.	.	.	.	.	.	.	.	.	4cc\	.	.
1r	.	.	1g	.	.	0r	.	.	1b	.	-lis	1dd	.	.
1C	.	.	2e\	.	.	.	.	.	1cc	.	ec-	1ee	.	.
.	.	.	2c\	.	.	.	.	.	.	.	.	.	.	.
=108	=108	=108	=108	=108	=108	=108	=108	=108	=108	=108	=108	=108	=108	=108
1G	.	.	2d\	.	.	0r	.	.	1b	.	-cle-	1dd	.	.
.	.	.	1g	.	.	.	.	.	.	.	.	.	.	.
1A	.	.	.	.	.	.	.	.	1cc	.	-si-	1cc	.	.
.	.	.	2f#i\	.	.	.	.	.	.	.	.	.	.	.
0G	.	.	2g\	.	.	0r	.	.	0dd	.	-a	0b	.	-lis,
.	.	.	2fi\	.	.	.	.	.	.	.	.	.	.	.
!	!	!	!LO:TX:sz=large:b:Z=16:t=    ,	!	!	!	!	!	!	!	!	!	!	!
.	.	.	1d,	.	-bis	.	.	.	.	.	.	.	.	.
!	!	!	!	!LO:DY:X=-10:Z=0	!	!	!	!	!	!	!	!	!	!
!	!	!	!LO:TX:i:X=10:Z=16:t=exultant and marcato	!	!	!	!	!	!	!	!	!	!	!
0C	.	-bis	2c\	f	u-	0r	.	.	2ee\	.	con-	0r	.	.
.	.	.	2c\	.	-ni-	.	.	.	2ee\	.	-gau-	.	.	.
.	.	.	2c\	.	-ver-	.	.	.	2ee\	.	-de-	.	.	.
.	.	.	2c\	.	-sa-	.	.	.	2cc\	.	-at	.	.	.
=109	=109	=109	=109	=109	=109	=109	=109	=109	=109	=109	=109	=109	=109	=109
1r	.	.	1B	.	-lis	0r	.	.	1dd	.	bis	0r	.	.
1C	.	cu-	1c	.	ec-	.	.	.	1ee	.	tem-	.	.	.
1G	.	-ius_	1B	.	-cle-	0r	.	.	1dd	.	-po-	0r	.	.
1C	.	_	1c	.	-si-	.	.	.	1cc	.	-ri-	.	.	.
!	!	!	!	!	!	!LO:TX:i:X:-30:Z=6:t=maestoso	!	!	!	!	!	!	!	!
0G	.	_	0d	.	-a	0g	.	post	0b	.	-bus	0r	.	.
=110	=110	=110	=110	=110	=110	=110	=110	=110	=110	=110	=110	=110	=110	=110
0r	.	.	2e\	.	con-	1g	.	ma-	2cc\	.	cum	0r	.	.
.	.	.	2e\	.	-gau-	.	.	.	2cc\	.	an-	.	.	.
.	.	.	2d\	.	-de-	1.a	.	.	2dd\	.	-ge-	.	.	.
.	.	.	2c\	.	-at	.	.	.	2ee\	.	-lis	.	.	.
0r	.	.	1d	.	bis	.	.	.	1ff	.	sic	0r	.	.
.	.	.	.	.	.	2f/	.	.	.	.	.	.	.	.
.	.	.	1e	.	tem-	1g	.	.	1cc	.	ca-	.	.	.
0r	.	.	1d	.	-po-	2a/	.	.	1ff	.	-nen-	0r	.	.
.	.	.	.	.	.	2b\	.	.	.	.	.	.	.	.
.	.	.	1c	.	-ri-	2cc\	.	.	2ee\	.	.	.	.	.
.	.	.	.	.	.	2a/	.	.	2cc\	.	.	.	.	.
=111	=111	=111	=111	=111	=111	=111	=111	=111	=111	=111	=111	=111	=111	=111
!LO:TX:i:Z=10:t=maestoso	!	!	!	!	!	!	!	!	!	!	!	!	!	!
0G	.	im-	0B	.	-bus	1g	.	.	1dd	.	.	0r	.	.
.	.	.	.	.	.	1g	.	-la_	2b\	.	.	.	.	.
.	.	.	.	.	.	.	.	.	2.dd\	.	.	.	.	.
1r	.	.	0r	.	.	2f/	.	_	.	.	.	0r	.	.
.	.	.	.	.	.	.	.	.	4cc\	.	.	.	.	.
.	.	.	.	.	.	2e/	.	_	1cc	.	-ti-	.	.	.
1G	.	-pe-	.	.	.	1d	.	_	.	.	.	.	.	.
.	.	.	.	.	.	.	.	.	2b\	.	.	.	.	.
!	!	!	!	!LO:HP:Z=15	!	!	!	!	!	!	!	!	!	!
1A	.	.	2c\	<	cum	1c	.	_	[0cc	.	-bus._	0r	.	.
.	.	.	2c\	(	an-	.	.	.	.	.	.	.	.	.
1G	.	.	2d\	(	-ge-	2r	.	_	.	.	.	.	.	.
.	.	.	2e\	(	-lis	2g/	.	ce-	.	.	.	.	.	.
=112	=112	=112	=112	=112	=112	=112	=112	=112	=112	=112	=112	=112	=112	=112
!	!	!	!	!	!	!	!	!	!	!	!	!LO:TX:i:Z=10:t=maestoso	!	!
1.F	.	.	1f	(	sic	1.a	.	-li-	0cc]	.	_	0.cc	.	Su-
.	.	.	1c	(	ca-	.	.	.	.	.	.	.	.	.
2E\	.	.	.	.	.	2g/	.	.	.	.	.	.	.	.
!	!	!	!	!LO:HPZ:X=-20	!	!	!	!	!	!	!	!	!	!
2F\	.	.	2f\	[	-nen-	2a/	.	.	0r	.	.	.	.	.
!	!	!	!	!LO:HP:Z=15	!	!	!	!	!	!	!	!	!	!
2C/	.	.	2e\	>	.	1cc	.	-co-	.	.	.	.	.	.
1G	.	-ri-	1d	)	-ti-	.	.	.	.	.	.	1dd	.	.
.	.	.	.	.	.	2b\	.	.	.	.	.	.	.	.
0C	.	-um_	0c	]	-bus:	0cc	.	-lis.	0g	.	e-	1.ee	.	.
.	.	.	.	.	.	.	.	.	.	.	.	4dd\	.	.
.	.	.	.	.	.	.	.	.	.	.	.	4cc\	.	.
=113	=113	=113	=113	=113	=113	=113	=113	=113	=113	=113	=113	=113	=113	=113
0.G	.	_	1r	.	.	0r	.	.	1g	.	-ya	1b	.	.
.	.	.	1.d	.	e-	.	.	.	2r	.	.	1.dd	.	.
.	.	.	.	.	.	.	.	.	2g/	.	e-	.	.	.
.	.	.	.	.	.	0r	.	.	2b\	.	-ya,	.	.	.
.	.	.	2e\	.	.	.	.	.	2b\	.	e-	4cc\	.	.
.	.	.	.	.	.	.	.	.	.	.	.	4b\	.	.
1F	.	su-	1f	.	-ya	.	.	.	2cc\	.	-ya,	1a	.	.
.	.	.	.	.	.	.	.	.	2cc\	.	e-	.	.	.
1G	.	.	1d	.	e-	0r	.	.	1g	.	-ya,	1b	.	-sci-
1C	.	.	[1e	.	.	.	.	.	2r	.	.	1cc	.	.
.	.	.	.	.	.	.	.	.	2g/	.	e-	.	.	.
=114	=114	=114	=114	=114	=114	=114	=114	=114	=114	=114	=114	=114	=114	=114
0G	.	.	2e\]	.	.	1.g	.	su-	2.b\	.	-ya,_	0dd	.	-pe
.	.	.	2d\	.	.	.	.	.	.	.	.	.	.	.
.	.	.	.	.	.	.	.	.	4a/	.	_	.	.	.
.	.	.	1d	.	-ya	.	.	.	2b\	.	_	.	.	.
.	.	.	.	.	.	4f/	.	.	2cc\	.	_	.	.	.
.	.	.	.	.	.	4e/	.	.	.	.	.	.	.	.
0.D	.	.	0d	.	e-	0f	.	.	0a	.	_	1r	.	.
.	.	.	.	.	.	.	.	.	.	.	.	1dd	.	de-
.	.	.	1d	.	-ya	1f	.	-sci-	1r	.	.	1dd	.	-pre-
1G	.	-per	2r	.	.	1g	.	-pe	1r	.	.	1dd	.	-ca-
.	.	.	2d\	.	e-	.	.	.	.	.	.	.	.	.
=115	=115	=115	=115	=115	=115	=115	=115	=115	=115	=115	=115	=115	=115	=115
1A	.	hu-	2f\	.	-ya	2c/	.	de-	2a/	.	al-	1cc	.	-ti-
.	.	.	2f\	.	e-	2f/	.	-pre-	2a/	.	-le-	.	.	.
1G	.	-me-	2g\	.	-ya	2d/	.	-ca-	2b\	.	-lu-	0dd	.	-o-
.	.	.	2g\	.	e-	2e/	.	-ti-	2b\	.	-ia,	.	.	.
1F	.	-rum_	1.d	.	-ya	1f	.	-o	1a	.	al-	.	.	.
1G	.	_	.	.	.	1d	.	.	1g	.	.	1b	.	.
.	.	.	2e\	.	al-	.	.	.	.	.	.	.	.	.
0D	.	_	2f\	.	-le-	0d	.	-nem	1a	.	-le-	1.dd	.	.
.	.	.	2e\	.	-lu-	.	.	.	.	.	.	.	.	.
.	.	.	2f\	.	-ia	.	.	.	1a	.	-lu-	.	.	.
.	.	.	2g\	.	De-	.	.	.	.	.	.	4cc\	.	.
.	.	.	.	.	.	.	.	.	.	.	.	4b\	.	.
=116	=116	=116	=116	=116	=116	=116	=116	=116	=116	=116	=116	=116	=116	=116
0A	.	_	0e	.	-o	1r	.	.	[0a	.	-ia!_	0cc	.	-nem
.	.	.	.	.	.	1e	.	nos-	.	.	.	.	.	.
!	!	!	!	!LO:HP:Z=20	!	!	!	!	!	!	!	!	!	!
0D	.	_	2d\	<	in	2.f/	.	.	0a]	.	_	1r	.	.
.	.	.	2d\	(	ex-	.	.	.	.	.	.	.	.	.
.	.	.	.	.	.	4g/	.	.	.	.	.	.	.	.
.	.	.	2f\	(	-cel-	2a/	.	.	.	.	.	1dd	.	nos-
.	.	.	2g\	(	-sis-	2b\	.	.	.	.	.	.	.	.
0r	.	.	1a	(	-glo-	2cc\	.	.	0r	.	.	2cc\	.	.
.	.	.	.	.	.	2.a/	.	.	.	.	.	2.ee\	.	.
.	.	.	2f\	(	.	.	.	.	.	.	.	.	.	.
.	.	.	.	.	.	4g/	.	.	.	.	.	4dd\	.	.
.	.	.	2a\	[	.	2a/	.	.	.	.	.	2cc\	.	.
=117	=117	=117	=117	=117	=117	=117	=117	=117	=117	=117	=117	=117	=117	=117
!	!	!	!	!LO:HP:Z=20	!	!	!	!	!	!	!	!	!	!
0r	.	.	2g\	>	.	2b\	.	.	0r	.	.	2b\	.	.
.	.	.	2f\	)	.	1a	.	.	.	.	.	1dd	.	.
.	.	.	1e	)	.	.	.	.	.	.	.	.	.	.
.	.	.	.	.	.	2g/	.	.	.	.	.	2cc#i\	.	-pe
0r	.	.	0d	)	-ri-	1a	.	.	0r	.	.	0dd	.	.
.	.	.	.	.	.	1f	.	.	.	.	.	.	.	.
!	!	!	!	!	!	!	!	!	!	!LO:HP:Z=15	!	!	!	!
0r	.	.	[0G	)	-a,_	1.d	.	.	2g/	<	De-	0dd	.	tram.
.	.	.	.	.	.	.	.	.	2g/	(	-o	.	.	.
.	.	.	.	.	.	.	.	.	2g/	(	in	.	.	.
.	.	.	.	.	.	[2g/	.	.	2g/	(	ex-	.	.	.
=118	=118	=118	=118	=118	=118	=118	=118	=118	=118	=118	=118	=118	=118	=118
0r	.	.	1G]	)	_	1g]	.	.	1b	(	-cel-	0r	.	.
.	.	.	2.d\	)	glo-	2f/	.	.	1dd	(	-sis	.	.	.
.	.	.	.	.	.	2b-i\	.	.	.	.	.	.	.	.
.	.	.	4e\	)	.	.	.	.	.	.	.	.	.	.
!	!	!	!	!	!	!	!	!	!	!LO:HPZ:X=-20	!	!	!	!
0r	.	.	2f\	)	.	2a/	.	.	2cc\	[	glo-	1r	.	.
!	!	!	!	!	!	!	!	!	!	!LO:HP:Z=15	!	!	!	!
.	.	.	2g\	)	.	1g	.	.	2b\	>	.	.	.	.
.	.	.	1d	)	-ri-	.	.	.	1a	)	-ri-	1dd	.	Val-
.	.	.	.	.	.	2f#i/	.	.	.	.	.	.	.	.
0G	.	e-	1G	]	-a,	0g	.	-tram_	0g	]	-a.	1b	.	.
.	.	.	1r	.	.	.	.	.	.	.	.	1dd	.	.
=119	=119	=119	=119	=119	=119	=119	=119	=119	=119	=119	=119	=119	=119	=119
[0C	.	-ius,_	2c\	.	et	0e	.	_	0r	.	.	2.ee\	.	.
.	.	.	2c\	.	in	.	.	.	.	.	.	.	.	.
.	.	.	.	.	.	.	.	.	.	.	.	4ff\	.	.
.	.	.	2c\	.	ter-	.	.	.	.	.	.	1gg	.	.
.	.	.	2c\	.	-ra	.	.	.	.	.	.	.	.	.
0C]	.	_	1e	.	pax	0c	.	_	0r	.	.	2.gg\	.	.
.	.	.	.	.	.	.	.	.	.	.	.	4ff\	.	.
.	.	.	1.g	.	ho-	.	.	.	.	.	.	2ee\	.	.
.	.	.	.	.	.	.	.	.	.	.	.	4dd\	.	.
.	.	.	.	.	.	.	.	.	.	.	.	4cc\	.	.
1r	.	.	.	.	.	1r	.	.	0r	.	.	2b\	.	.
.	.	.	2f\	.	-mi-	.	.	.	.	.	.	2dd\	.	.
!	!LO:HP:Z=5	!	!	!LO:HP:Z=5	!	!LO:TX:rj:i:X=50:Z=22:t=exultant and mercato	!	!	!	!	!	!	!LO:HP:Z=15	!
!	!	!	!	!	!	!	!LO:HP:Z=5	!	!	!	!	!	!	!
[1C	<	e-	2e\	<	.	1g	<	Val-	.	.	.	2cc\	<	.
.	.	.	2c\	(	.	.	.	.	.	.	.	[2ee\	(	.
=120	=120	=120	=120	=120	=120	=120	=120	=120	=120	=120	=120	=120	=120	=120
1C]	(	.	1e	(	.	1.g	(	-la,_	0r	.	.	4ee\]	(	.
.	.	.	.	.	.	.	.	.	.	.	.	4dd\	(	.
.	.	.	.	.	.	.	.	.	.	.	.	1cc	(	.
1G	(	.	1d	(	-ni-	.	.	.	.	.	.	.	.	.
.	.	.	.	.	.	2f/	(	_	.	.	.	2b\	(	.
!	!LO:HPZ:X=-10	!	!	!	!	!	!	!	!	!	!	!	!	!
1C	[	-ius.	1c	[	-bus.	1e	[	_	0r	.	.	1cc	[	-la,
1r	.	.	1r	.	.	1r	.	.	.	.	.	1r	.	.
!	!LO:DY:Y=10	!	!	!LO:DY:Y=10	!	!	!LO:DY:Y=10	!	!	!LO:DY:X=-5:Y=10	!	!LO:TX:i:rj:X=-10:Y=10:t=subito	!	!
!	!	!	!LO:TX:i:rj:Y=10:t=subito	!	!	!	!	!	!	!	!	!	!LO:DY:X=-5:Y=10	!
!LO:TX:i:rj:Y=10:t=subito	!	!	!	!	!	!LO:TX:i:rj:Y=10:t=subito	!	!	!	!	!	!	!	!
0C;	pp	Sus,	0c;	pp	Sus,	0g;	pp	sus,	0cc;	pp	Sus,	0ee;	pp	sus,
=121	=121	=121	=121	=121	=121	=121	=121	=121	=121	=121	=121	=121	=121	=121
1E	.	val-	1G	.	val-	1g	.	val-	1cc	.	val-	1gg	.	val-
1D	.	-la,	1B	.	-la,	1d	.	-la,	1dd	.	-la,	1ff	.	-la,
[0C;l	.	sus,	[0c;l	.	sus,	[0e;l	.	sus,	[0g;l	.	sus,	[0ee;l	.	sus,
0C]	.	.	0c]	.	.	0e]	.	.	0g]	.	.	0ee]	.	.
=122	=122	=122	=122	=122	=122	=122	=122	=122	=122	=122	=122	=122	=122	=122
1c	.	val-	1e	.	val-	1g	.	val-	1g	.	val-	1cc	.	val-
1c	.	-la,	1e	.	-la,	1g	.	-la,	1cc	.	-la,	1cc	.	-la,
[0G;l	.	sus.	[0d;l	.	sus.	[0b;l	.	sus.	[0b;l	.	sus.	[0dd;l	.	sus.
0G]	.	.	0d]	.	.	0b]	.	.	0b]	.	.	0dd]	.	.
=123	=123	=123	=123	=123	=123	=123	=123	=123	=123	=123	=123	=123	=123	=123
!	!LO:DY:X=-25:Z=8	!	!	!	!	!	!LO:DY:X=-10:Z=0	!	!	!LO:DY:X=-20:Z=5	!	!	!LO:DY:X=-15:Z=5	!
1G	mp	Val-	0r	.	.	1g	mp	Val-	1g	mf	Val-	1dd	mp	Val-
1G	.	-la-	.	.	.	1g	.	-la-	1b	.	-la-	1dd	.	-la-
1A	.	-sus	0r	.	.	1e	.	-sus	1cc	.	-sus	1cc	.	-sus
1D	.	in	.	.	.	1f	.	in	1dd	.	in	1a	.	in
1A	.	o-	0r	.	.	1e	.	o-	1ee	.	o-	1cc	.	o-
1A	.	-ri-	.	.	.	1f	.	-ri-	1cc	.	-ri-	1cc	.	-ri-
=124	=124	=124	=124	=124	=124	=124	=124	=124	=124	=124	=124	=124	=124	=124
!	!	!	!	!LO:DY:X=-10:Z=-2	!	!	!	!	!	!	!	!	!	!
0G	.	-sus,	1G	mf	Val-	0g	.	-sus,	0dd	.	-sus	1b	.	-sus,_
.	.	.	1B	.	-la-	.	.	.	.	.	.	1g	.	_
1r	.	.	1c	.	-sus	1e	.	val-	0r	.	.	2g/	.	val-
.	.	.	.	.	.	.	.	.	.	.	.	2a/	.	.
1G	.	in	1d	.	in	0g	.	-la_	.	.	.	1b	.	-la
1C	.	o-	1e	.	o-	.	.	.	0r	.	.	1cc	.	sus_
1C	.	-ri-	1c	.	-ri-	1cc	.	_	.	.	.	[1ee	.	_
=125	=125	=125	=125	=125	=125	=125	=125	=125	=125	=125	=125	=125	=125	=125
!	!	!	!	!	!	!	!	!	!	!LO:HP:Z=10	!	!	!	!
0G	.	-sus,	0d	.	-sus,	1b	.	sus	1g	<	val-	2ee\]	.	_
.	.	.	.	.	.	.	.	.	.	.	.	2dd\	.	_
.	.	.	.	.	.	1g	.	in	1b	(	-la	1dd	.	in
0r	.	.	0r	.	.	2a/	.	o-	2cc\	(	sus_	2cc\	.	o-
.	.	.	.	.	.	2f/	.	.	2dd\	(	_	2a/	.	.
.	.	.	.	.	.	2a/	.	.	2cc\	(	in_	2cc\	.	.
.	.	.	.	.	.	4g/	.	.	2b\	(	_	2dd\	.	.
.	.	.	.	.	.	4f/	.	.	.	.	.	.	.	.
0r	.	.	0r	.	.	1e	.	.	1cc	(	o-	1ee	.	.
.	.	.	.	.	.	2f/	.	-ri-	1dd	[	.	[1dd	.	-ri-
.	.	.	.	.	.	[2d/	.	.	.	.	.	.	.	.
=126	=126	=126	=126	=126	=126	=126	=126	=126	=126	=126	=126	=126	=126	=126
0r	.	.	0r	.	.	2d/]	.	.	2ff\	.	-ri-	2dd\]	.	.
.	.	.	.	.	.	1g	.	.	2ee\	.	.	1b	.	.
.	.	.	.	.	.	.	.	.	2dd\	.	.	.	.	.
.	.	.	.	.	.	2a/	.	.	2cc\	.	.	2a/	.	.
1.G	.	val-	1G	.	val-	1b	.	-sus,	0dd	.	-sus,	0g	.	-sus,
.	.	.	1B	.	-la-	2g/	.	in	.	.	.	.	.	.
2F\	.	-la-	.	.	.	2.b\	.	o-	.	.	.	.	.	.
2G\	.	-sus_	2c\	.	-sus_	.	.	.	0r	.	.	0r	.	.
.	.	.	.	.	.	4a/	.	.	.	.	.	.	.	.
2D\	.	_	2d\	.	_	2.a/	.	.	.	.	.	.	.	.
2F\	.	in_	2c\	.	in_	.	.	.	.	.	.	.	.	.
.	.	.	.	.	.	4g/	.	.	.	.	.	.	.	.
2G\	.	_	2B\	.	_	[2g/	.	.	.	.	.	.	.	.
=127	=127	=127	=127	=127	=127	=127	=127	=127	=127	=127	=127	=127	=127	=127
1A	.	o-	1c	.	o-	2g/]	.	.	0r	.	.	1a	.	Re-
.	.	.	.	.	.	2f/	.	.	.	.	.	.	.	.
1G	.	.	1d	.	.	2g/	.	.	.	.	.	2b\	.	-qui-
.	.	.	.	.	.	2b-i\	.	.	.	.	.	2.dd\	.	-e-
2D\	.	-ri-	2f\	.	-ri-	2a/	.	-ri-	0r	.	.	.	.	.
.	.	.	.	.	.	.	.	.	.	.	.	4cc\	.	.
1G	.	.	2e\	.	.	2.g/	.	.	.	.	.	1b	.	-scat
.	.	.	2d\	.	.	.	.	.	.	.	.	.	.	.
.	.	.	.	.	.	4f/	.	.	.	.	.	.	.	.
2A\	.	.	2c\	.	.	2e/	.	.	.	.	.	2a/	.	ip-
0D	.	-sus,	0d	.	-sus,	1f	.	.	0dd	.	Re-	1.a	.	-se_
.	.	.	.	.	.	[1a	.	.	.	.	.	.	.	.
.	.	.	.	.	.	.	.	.	.	.	.	2b\	.	_
=128	=128	=128	=128	=128	=128	=128	=128	=128	=128	=128	=128	=128	=128	=128
!	!	!	!	!LO:HP:Z=15	!	!	!	!	!	!	!	!	!	!
0r	.	.	2c\	<	re-	2a/]	.	.	1ee	.	-qui-	1cc	.	par-
.	.	.	2c\	(	-qui-	2g/	.	.	.	.	.	.	.	.
.	.	.	2d\	(	-es-	2f/	.	.	2dd\	.	-e-	2b\	.	-vu-
.	.	.	2e\	(	-cat	2g/	.	.	2cc\	.	.	2g/	.	.
0r	.	.	1f	(	ip-	1d	.	.	2dd\	.	-scat	2.a/	.	-lus._
.	.	.	.	.	.	.	.	.	2dd\	.	ip-	.	.	.
.	.	.	.	.	.	.	.	.	.	.	.	4b\	.	_
.	.	.	2c\	(	-se_	1g	.	.	2ee\	.	-se	2cc\	.	_
.	.	.	2B\	(	_	.	.	.	2.dd\	.	par-	2dd\	.	_
!	!	!	!	!LO:HPZ:X=-30	!	!	!	!	!	!	!	!	!	!
0r	.	.	1e	[	par-	2c/	.	.	.	.	.	2a/	.	No-
.	.	.	.	.	.	.	.	.	4cc\	.	.	.	.	.
.	.	.	.	.	.	1g	.	.	1cc	.	-vu-	2cc\	.	.
!	!	!	!	!LO:HP:X=-12:Z=15	!	!	!	!	!	!	!	!	!	!
.	.	.	1d	>	-vu-	.	.	.	.	.	.	1dd	.	.
.	.	.	.	.	.	2f/	.	.	2b\	.	.	.	.	.
=129	=129	=129	=129	=129	=129	=129	=129	=129	=129	=129	=129	=129	=129	=129
0C	.	re-	0c	]	-lus.	1g	.	-sus._	0cc	.	-lus.	2.ee\	.	-e,_
.	.	.	.	.	.	.	.	.	.	.	.	4ff\	.	_
!	!	!	!	!	!	!LO:TX:b:sz=large:Z=6:t=   ,	!	!	!	!	!	!	!	!
.	.	.	.	.	.	1e	.	_	.	.	.	1.gg	.	_
!	!	!	!	!	!	!	!LO:HP:Z=5	!	!	!	!	!	!	!
1E	.	-qui-	0r	.	.	2c/	<	Re-	0r	.	.	.	.	.
.	.	.	.	.	.	2c/	(	-qui-	.	.	.	4ff\	.	No-
.	.	.	.	.	.	.	.	.	.	.	.	4ee\	.	.
2D\	.	-e-	.	.	.	2d/	(	-es-	.	.	.	2ff\	.	.
2C/	.	.	.	.	.	2e/	(	-cat	.	.	.	2gg\	.	.
1D	.	-scat	1d	.	No-	1f	(	ip-	0r	.	.	2dd\	.	.
.	.	.	.	.	.	.	.	.	.	.	.	2ff\	.	.
2C/	.	ip-	2e\	.	-e,_	2c/	(	-se_	.	.	.	2ee\	.	.
2G\	.	.	[2g\	.	_	2B/	[	_	.	.	.	[2dd\	.	.
=130	=130	=130	=130	=130	=130	=130	=130	=130	=130	=130	=130	=130	=130	=130
!	!	!	!	!LO:DY:X=-10:Z=0	!	!	!LO:HP:Z=5	!	!	!	!	!	!	!
1C	.	-se_	2g\]	.	_	1e	>	par-	0r	.	.	4dd\]	.	.
.	.	.	.	.	.	.	.	.	.	.	.	4cc\	.	.
.	.	.	1g	.	no-	.	.	.	.	.	.	1cc	.	.
1G	.	_	.	.	.	1d	)	.	.	.	.	.	.	.
.	.	.	2f\	.	-e,	.	.	.	.	.	.	2b\	.	.
!	!	!	!	!	!	!	!	!	!	!	!	!LO:TX:b:sz=large:Z=6:t=   ,	!	!
1r	.	.	1e	.	no-	1c	)	-vu-	0r	.	.	1cc,	.	-e,
!	!LO:DY:Z=2	!	!	!	!	!	!	!	!	!	!	!	!LO:DY:X=-15:Z=2	!
1C	p	par-	1c	.	.	1e	)	.	.	.	.	1cc	p	No-
!	!	!	!LO:TX:sz=large:b:Z=16:t=    ,	!	!	!	!	!	!	!	!	!	!	!
1.G	.	.	1d,	.	-e,	1d	)	-lus._	0r	.	.	1b	.	-e._
.	.	.	[1d	p	par-	[1g	]	_	.	.	.	1dd	.	_
2A\	.	.	.	.	.	.	.	.	.	.	.	.	.	.
=131	=131	=131	=131	=131	=131	=131	=131	=131	=131	=131	=131	=131	=131	=131
1B	.	-vu-	2d\]	.	.	1g]	.	_	0r	.	.	1dd	.	A-
.	.	.	4c\	.	-vu-	.	.	.	.	.	.	.	.	.
.	.	.	4B\	.	.	.	.	.	.	.	.	.	.	.
!	!	!	!	!	!	!	!LO:DY:Z=2:X=-15	!	!	!	!	!	!	!
1c	.	.	1A	.	-lus.	0a	p	_	.	.	.	1.ee	.	.
!	!	!	!	!	!	!	!	!	!	!LO:DY:X=-20:Z=2	!	!	!	!
1A	.	-lus._	1c	.	A-	.	.	.	0cc	p	A-	.	.	.
.	.	.	.	.	.	.	.	.	.	.	.	2dd\	.	.
1c	.	_	1e	.	.	0.g	.	_	.	.	.	0cc	.	.
0G	.	_	0d	.	.	.	.	.	0dd	.	.	.	.	.
.	.	.	.	.	.	.	.	.	.	.	.	1b	.	.
=132	=132	=132	=132	=132	=132	=132	=132	=132	=132	=132	=132	=132	=132	=132
0C	.	A-	0c	.	.	0e	.	A-	0ee	.	.	0cc	.	.
[0G;l	.	.	[0d;l	.	.	[0g;l	.	.	[0dd;l	.	.	[0b;l	.	.
0G]	.	.	0d]	.	.	0g]	.	.	0dd]	.	.	0b]	.	.
=133	=133	=133	=133	=133	=133	=133	=133	=133	=133	=133	=133	=133	=133	=133
[0Cl	.	-men.	[0cl	.	-men.	[0gl	.	-men.	[0eel [0ggl	.	-men.	[0ccl	.	-men.
0C_	.	.	0c_	.	.	0g_	.	.	0ee_yy 0gg_yy	.	.	0cc_	.	.
0C]	.	.	0c]	.	.	0g]	.	.	0ee]yy 0gg]yy	.	.	0cc]	.	.
==	==	==	==	==	==	==	==	==	==	==	==	==	==	==
*-	*-	*-	*-	*-	*-	*-	*-	*-	*-	*-	*-	*-	*-	*-
!!!RDF**kern: l=long note in original notation
!!!RDF**kern: i=editorial accidental
!!!ENC: Jesse Rodin; Victoria Chang 2011/11/20
!!!END: 2011/11/20/
!!!SMS: Chigi Codex; Lindenburg, CMM 9-2
!!!EED:	Victoria Chang
!!!EEV:	2011/12/24/
!!attribution-level@Jos: 5 (doubtful)
!!!ONB:	Translated from MusicXML and edited on 2011/12/24/ by Craig Sapp
!!muse2ps: z14jC^@{COM}\n@{SCT}^T^@{OTL}^i2I150v130,130,130,130,110c95Q4s^[(.)(.)(.)(.)(.)]^
